; #disp params :
; Printmode:0
; Layer:182
; Zmax:125.939 mm
; Xmax:149.814 mm
; Ymax:36.4 mm
; Xmin:74.408 mm
; Ymin:0.2 mm
; E0diam:0.4 mm
; E0len:5.15776 m
; E0temp:215 C
; Bedtemp:215 C
; Time:69.9522 min
; #params end
; GCode generated by CraftWare

G28 X Y ; home horizontally
G28 Z ; home vertically


M104 S215 ;set head temp (no wait)
M190 S60 ;set bed temp (wait)
M109 S215 ;set head temp (wait)
; ------------------------------------
; Layer #0
; ------------------------------------
M106 S0 ;turn off fan
G21 ; mm
G90 ; abs
G92 E0 ;reset extr
G0 F600 Z0.200
;segType:Skirt
G0 F3000 E-1.00000
G0 X113.909 Y41.074 F5400
G0 F3000 E0.00000
G1 X145.883 Y41.074 E1.06346 F2400
G1 X146.217 Y41.274 E1.07639
G1 X149.814 Y44.871 E1.24559
G1 X149.814 Y85.905 E2.61036
G1 X149.747 Y86.371 E2.62604
G1 X145.883 Y90.235 E2.80777
G1 X132.561 Y90.235 E3.25088
G1 X132.361 Y90.301 E3.25787
G1 X132.361 Y93.499 E3.36422
G1 X132.228 Y93.898 E3.37823
G1 X132.228 Y98.694 E3.53775
G1 X132.427 Y99.027 E3.55066
G1 X133.227 Y99.826 E3.58826
G1 X133.294 Y100.293 E3.60393
G1 X133.294 Y106.688 E3.81663
G1 X133.160 Y107.620 E3.84796
G1 X133.160 Y112.417 E4.00748
G1 X131.961 Y113.616 E4.06388
G1 X131.961 Y118.412 E4.22340
G1 X131.828 Y118.545 E4.22966
G1 X131.828 Y121.742 E4.33601
G1 X131.761 Y122.209 E4.35168
G1 X128.031 Y125.939 E4.52715
G1 X118.972 Y125.939 E4.82846
G1 X118.572 Y125.806 E4.84247
G1 X110.046 Y125.806 E5.12606
G1 X109.646 Y125.673 E5.14008
G1 X101.120 Y125.673 E5.42367
G1 X100.986 Y125.539 E5.42993
G1 X93.259 Y125.539 E5.68694
G1 X93.126 Y125.406 E5.69320
G1 X91.527 Y125.406 E5.74638
G1 X91.061 Y125.339 E5.76205
G1 X90.328 Y124.607 E5.79650
G0 X90.261 Y124.540 F5400
G1 X87.330 Y121.609 E5.93437 F2400
G1 X87.330 Y111.484 E6.27113
G1 X87.464 Y111.084 E6.28514
G1 X87.464 Y103.091 E6.55101
G1 X87.597 Y102.958 E6.55728
G1 X87.597 Y94.964 E6.82314
G1 X87.730 Y94.564 E6.83715
G1 X87.730 Y89.768 E6.99667
G1 X87.930 Y89.435 E7.00960
G1 X90.062 Y87.303 E7.10987
G1 X90.195 Y87.037 E7.11976
G1 X78.205 Y87.037 E7.51856
G1 X74.474 Y83.307 E7.69402
G1 X74.408 Y82.841 E7.70970
G1 X74.408 Y46.603 E8.91495
G1 X74.508 Y46.436 E8.92145
G0 F3000 E7.92145
G0 X115.850 Y46.671 F5400
G0 X115.850 Y56.268
G0 X128.295 Y59.228
G0 X128.234 Y59.286
G0 X127.899 Y59.134
G0 F3000 E8.92145
;segType:HShell
G1 X116.211 Y47.445 E9.47123 F2400
G0 X115.717 Y47.044 F5400
;segType:Perimeter
G1 X115.510 Y46.271 E9.49784 F1200
G1 X144.550 Y46.271 E10.46369
G1 X144.550 Y84.870 E11.74750
G1 X115.450 Y84.870 E12.71534
G1 X115.450 Y46.331 E13.99716
G0 X115.510 Y46.271 F5400
G0 X117.110 Y46.271
G0 X116.550 Y46.671
;segType:Loop
G1 X144.150 Y46.671 E14.91511 F2400
G1 X144.150 Y84.470 E16.17232
G1 X115.850 Y84.470 E17.11355
G1 X115.850 Y46.671 E18.37075
G1 X116.350 Y46.671 E18.38739
G0 F3000 E17.38739
G0 X116.350 Y46.671 F5400
G0 X127.901 Y59.797
G0 X127.817 Y59.963
G0 X127.700 Y60.345
G0 X127.650 Y60.741
G0 X127.666 Y61.139
G0 X127.750 Y61.529
G0 X127.900 Y61.900
G0 X128.108 Y62.239
G0 X128.372 Y62.539
G0 X128.683 Y62.790
G0 X129.031 Y62.984
G0 X129.407 Y63.117
G0 X129.801 Y63.184
G0 X130.199 Y63.184
G0 X130.593 Y63.117
G0 X130.768 Y63.055
G0 X144.150 Y78.262
G0 X143.789 Y77.853
G0 F3000 E18.38739
;segType:HShell
G1 X129.422 Y63.485 E19.06319 F2400
G0 X129.031 Y62.984 F5400
G0 X129.082 Y62.850
;segType:Perimeter
G1 X128.610 Y62.204 E19.08979 F1200
G1 X128.431 Y62.000 E19.09881
G1 X128.258 Y61.719 E19.10981
G1 X128.134 Y61.412 E19.12082
G1 X128.065 Y61.088 E19.13183
G1 X128.051 Y60.758 E19.14283
G1 X128.093 Y60.429 E19.15384
G1 X128.189 Y60.113 E19.16485
G1 X128.339 Y59.817 E19.17585
G1 X128.535 Y59.551 E19.18686
G1 X128.774 Y59.322 E19.19787
G1 X129.048 Y59.137 E19.20887
G1 X129.350 Y59.001 E19.21988
G1 X129.670 Y58.917 E19.23089
G1 X130.000 Y58.889 E19.24190
G1 X130.330 Y58.917 E19.25291
G1 X130.650 Y59.001 E19.26391
G1 X130.952 Y59.137 E19.27492
G1 X131.226 Y59.322 E19.28592
G1 X131.465 Y59.551 E19.29693
G1 X131.661 Y59.817 E19.30794
G1 X131.810 Y60.113 E19.31894
G1 X131.907 Y60.429 E19.32995
G1 X131.949 Y60.758 E19.34096
G1 X131.935 Y61.088 E19.35196
G1 X131.866 Y61.412 E19.36296
G1 X131.742 Y61.719 E19.37398
G1 X131.569 Y62.000 E19.38498
G1 X131.350 Y62.249 E19.39599
G1 X131.093 Y62.457 E19.40700
G1 X130.804 Y62.618 E19.41801
G1 X130.492 Y62.729 E19.42901
G1 X130.165 Y62.784 E19.44002
G1 X129.835 Y62.784 E19.45102
G1 X129.508 Y62.729 E19.46203
G1 X129.196 Y62.618 E19.47304
G1 X128.907 Y62.457 E19.48405
G1 X128.697 Y62.287 E19.49306
G0 X128.610 Y62.204 F5400
G0 X128.431 Y62.000
G0 X128.258 Y61.719
G0 X128.134 Y61.412
G0 X128.065 Y61.088
G0 X128.051 Y60.758
G0 X128.051 Y60.752
G0 X127.650 Y60.741
G0 X127.666 Y61.139
G0 X127.729 Y61.431
;segType:Loop
G1 X127.666 Y61.139 E19.50301 F2400
G1 X127.650 Y60.741 E19.51626
G1 X127.700 Y60.345 E19.52953
G1 X127.817 Y59.963 E19.54282
G1 X127.997 Y59.607 E19.55609
G1 X128.234 Y59.286 E19.56935
G1 X128.522 Y59.010 E19.58264
G1 X128.853 Y58.787 E19.59590
G1 X129.216 Y58.622 E19.60916
G1 X129.602 Y58.522 E19.62244
G1 X130.000 Y58.488 E19.63572
G1 X130.398 Y58.522 E19.64899
G1 X130.784 Y58.622 E19.66226
G1 X131.147 Y58.787 E19.67552
G1 X131.478 Y59.010 E19.68879
G1 X131.766 Y59.286 E19.70208
G1 X132.003 Y59.607 E19.71535
G1 X132.183 Y59.963 E19.72862
G1 X132.300 Y60.345 E19.74189
G1 X132.350 Y60.741 E19.75516
G1 X132.334 Y61.139 E19.76842
G1 X132.250 Y61.529 E19.78170
G1 X132.101 Y61.900 E19.79498
G1 X131.892 Y62.239 E19.80824
G1 X131.628 Y62.539 E19.82151
G1 X131.317 Y62.790 E19.83479
G1 X130.969 Y62.984 E19.84806
G1 X130.593 Y63.117 E19.86133
G1 X130.199 Y63.184 E19.87462
G1 X129.801 Y63.184 E19.88786
G1 X129.407 Y63.117 E19.90114
G1 X129.031 Y62.984 E19.91442
G1 X128.683 Y62.790 E19.92769
G1 X128.372 Y62.539 E19.94096
G1 X128.108 Y62.239 E19.95424
G1 X127.900 Y61.900 E19.96750
G0 X128.376 Y63.005 F5400
;segType:HShell
G1 X143.789 Y78.418 E20.69249 F2400
G0 F3000 E19.69249
G0 X144.150 Y78.350 F5400
G0 X115.850 Y83.717
G0 X116.211 Y83.649
G0 F3000 E20.69249
G1 X116.671 Y84.110 E20.71417 F2400
G0 X117.237 Y84.110 F5400
G1 X116.211 Y83.083 E20.76245 F2400
G0 X116.211 Y82.518 F5400
G1 X117.803 Y84.110 E20.83735 F2400
G0 X118.368 Y84.110 F5400
G1 X116.211 Y81.952 E20.93885 F2400
G0 X116.211 Y81.386 F5400
G1 X118.934 Y84.110 E21.06696 F2400
G0 X119.500 Y84.110 F5400
G1 X116.211 Y80.821 E21.22168 F2400
G0 X116.211 Y80.255 F5400
G1 X120.066 Y84.110 E21.40301 F2400
G0 X120.631 Y84.110 F5400
G1 X116.211 Y79.689 E21.61095 F2400
G0 X116.211 Y79.124 F5400
G1 X121.197 Y84.110 E21.84549 F2400
G0 X121.763 Y84.110 F5400
G1 X116.211 Y78.558 E22.10664 F2400
G0 X116.211 Y77.992 F5400
G1 X122.328 Y84.110 E22.39440 F2400
G0 X122.894 Y84.110 F5400
G1 X116.211 Y77.427 E22.70877 F2400
G0 X116.211 Y76.861 F5400
G1 X123.460 Y84.110 E23.04975 F2400
G0 X124.025 Y84.110 F5400
G1 X116.211 Y76.295 E23.41733 F2400
G0 X116.211 Y75.729 F5400
G1 X124.591 Y84.110 E23.81153 F2400
G0 X125.157 Y84.110 F5400
G1 X116.211 Y75.164 E24.23233 F2400
G0 X116.211 Y74.598 F5400
G1 X125.722 Y84.110 E24.67974 F2400
G0 X126.288 Y84.110 F5400
G1 X116.211 Y74.032 E25.15376 F2400
G0 X116.211 Y73.467 F5400
G1 X126.854 Y84.110 E25.65438 F2400
G0 X127.419 Y84.110 F5400
G1 X116.211 Y72.901 E26.18162 F2400
G0 X116.211 Y72.335 F5400
G1 X127.985 Y84.110 E26.73546 F2400
G0 X128.551 Y84.110 F5400
G1 X116.211 Y71.770 E27.31591 F2400
G0 X116.211 Y71.204 F5400
G1 X129.117 Y84.110 E27.92296 F2400
G0 X129.682 Y84.110 F5400
G1 X116.211 Y70.638 E28.55663 F2400
G0 X116.211 Y70.073 F5400
G1 X130.248 Y84.110 E29.21690 F2400
G0 X130.814 Y84.110 F5400
G1 X116.211 Y69.507 E29.90379 F2400
G0 X116.211 Y68.941 F5400
G1 X131.379 Y84.110 E30.61727 F2400
G0 X131.945 Y84.110 F5400
G1 X116.211 Y68.376 E31.35737 F2400
G0 X116.211 Y67.810 F5400
G1 X132.511 Y84.110 E32.12408 F2400
G0 X133.076 Y84.110 F5400
G1 X116.211 Y67.244 E32.91740 F2400
G0 X116.211 Y66.679 F5400
G1 X133.642 Y84.110 E33.73732 F2400
G0 X134.208 Y84.110 F5400
G1 X116.211 Y66.113 E34.58385 F2400
G0 X116.211 Y65.547 F5400
G1 X134.773 Y84.110 E35.45699 F2400
G0 X135.339 Y84.110 F5400
G1 X116.211 Y64.981 E36.35674 F2400
G0 X116.211 Y64.416 F5400
G1 X135.905 Y84.110 E37.28309 F2400
G0 X136.470 Y84.110 F5400
G1 X116.211 Y63.850 E38.23605 F2400
G0 X116.211 Y63.284 F5400
G1 X137.036 Y84.110 E39.21563 F2400
G0 X137.602 Y84.110 F5400
G1 X116.211 Y62.719 E40.22181 F2400
G0 X116.211 Y62.153 F5400
G1 X138.167 Y84.110 E41.25459 F2400
G0 X138.733 Y84.110 F5400
G1 X116.211 Y61.587 E42.31399 F2400
G0 X116.211 Y61.022 F5400
G1 X139.299 Y84.110 E43.39999 F2400
G0 X139.865 Y84.110 F5400
G1 X116.211 Y60.456 E44.51261 F2400
G0 X116.211 Y59.890 F5400
G1 X140.430 Y84.110 E45.65183 F2400
G0 X140.996 Y84.110 F5400
G1 X116.211 Y59.325 E46.81766 F2400
G0 X116.211 Y58.759 F5400
G1 X141.562 Y84.110 E48.01009 F2400
G0 X142.127 Y84.110 F5400
G1 X116.211 Y58.193 E49.22914 F2400
G0 X116.211 Y57.628 F5400
G1 X142.693 Y84.110 E50.47479 F2400
G0 X143.259 Y84.110 F5400
G1 X116.211 Y57.062 E51.74705 F2400
G0 X116.211 Y56.496 F5400
G1 X143.789 Y84.075 E53.04428 F2400
G0 X143.789 Y83.509 F5400
G1 X116.211 Y55.930 E54.34151 F2400
G0 X116.211 Y55.365 F5400
G1 X143.789 Y82.944 E55.63874 F2400
G0 X143.789 Y82.378 F5400
G1 X116.211 Y54.799 E56.93597 F2400
G0 X116.211 Y54.233 F5400
G1 X143.789 Y81.812 E58.23319 F2400
G0 X143.789 Y81.247 F5400
G1 X116.211 Y53.668 E59.53042 F2400
G0 X116.211 Y53.102 F5400
G1 X143.789 Y80.681 E60.82765 F2400
G0 X143.789 Y80.115 F5400
G1 X116.211 Y52.536 E62.12488 F2400
G0 X116.211 Y51.971 F5400
G1 X143.789 Y79.550 E63.42211 F2400
G0 X143.789 Y78.984 F5400
G1 X116.211 Y51.405 E64.71935 F2400
G0 X116.211 Y50.839 F5400
G1 X127.806 Y62.435 E65.26477 F2400
G0 X127.359 Y61.422 F5400
G1 X116.211 Y50.274 E65.78916 F2400
G0 X116.211 Y49.708 F5400
G1 X127.291 Y60.789 E66.31037 F2400
G0 X127.346 Y60.277 F5400
G1 X116.211 Y49.142 E66.83412 F2400
G0 X116.211 Y48.577 F5400
G1 X127.477 Y59.843 E67.36407 F2400
G0 X127.665 Y59.465 F5400
G1 X116.211 Y48.011 E67.90285 F2400
G0 F3000 E66.90285
G0 X115.850 Y48.024 F5400
G0 X144.150 Y47.008
G0 X143.515 Y47.031
G0 F3000 E67.90285
G1 X143.789 Y47.306 E67.91576 F2400
G0 X143.789 Y47.871 F5400
G1 X142.949 Y47.031 E67.95527 F2400
G0 X142.384 Y47.031 F5400
G1 X143.789 Y48.437 E68.02140 F2400
G0 X143.789 Y49.003 F5400
G1 X141.818 Y47.031 E68.11413 F2400
G0 X141.252 Y47.031 F5400
G1 X143.789 Y49.568 E68.23347 F2400
G0 X143.789 Y50.134 F5400
G1 X140.687 Y47.031 E68.37942 F2400
G0 X140.121 Y47.031 F5400
G1 X143.789 Y50.700 E68.55197 F2400
G0 X143.789 Y51.265 F5400
G1 X139.555 Y47.031 E68.75114 F2400
G0 X138.990 Y47.031 F5400
G1 X143.789 Y51.831 E68.97691 F2400
G0 X143.789 Y52.397 F5400
G1 X138.424 Y47.031 E69.22929 F2400
G0 X137.858 Y47.031 F5400
G1 X143.789 Y52.962 E69.50828 F2400
G0 X143.789 Y53.528 F5400
G1 X137.293 Y47.031 E69.81388 F2400
G0 X136.727 Y47.031 F5400
G1 X143.789 Y54.094 E70.14608 F2400
G0 X143.789 Y54.659 F5400
G1 X136.161 Y47.031 E70.50489 F2400
G0 X135.595 Y47.031 F5400
G1 X143.789 Y55.225 E70.89031 F2400
G0 X143.789 Y55.791 F5400
G1 X135.030 Y47.031 E71.30234 F2400
G0 X134.464 Y47.031 F5400
G1 X143.789 Y56.357 E71.74098 F2400
G0 X143.789 Y56.922 F5400
G1 X133.898 Y47.031 E72.20623 F2400
G0 X133.333 Y47.031 F5400
G1 X143.789 Y57.488 E72.69808 F2400
G0 X143.789 Y58.054 F5400
G1 X132.767 Y47.031 E73.21654 F2400
G0 X132.201 Y47.031 F5400
G1 X143.789 Y58.619 E73.76161 F2400
G0 X143.789 Y59.185 F5400
G1 X131.636 Y47.031 E74.33328 F2400
G0 X131.070 Y47.031 F5400
G1 X143.789 Y59.751 E74.93157 F2400
G0 X143.789 Y60.316 F5400
G1 X130.504 Y47.031 E75.55646 F2400
G0 X129.939 Y47.031 F5400
G1 X143.789 Y60.882 E76.20796 F2400
G0 X143.789 Y61.448 F5400
G1 X129.373 Y47.031 E76.88607 F2400
G0 X128.807 Y47.031 F5400
G1 X143.789 Y62.013 E77.59079 F2400
G0 X143.789 Y62.579 F5400
G1 X128.242 Y47.031 E78.32212 F2400
G0 X127.676 Y47.031 F5400
G1 X143.789 Y63.145 E79.08005 F2400
G0 X143.789 Y63.710 F5400
G1 X127.110 Y47.031 E79.86460 F2400
G0 X126.545 Y47.031 F5400
G1 X143.789 Y64.276 E80.67575 F2400
G0 X143.789 Y64.842 F5400
G1 X125.979 Y47.031 E81.51351 F2400
G0 X125.413 Y47.031 F5400
G1 X143.789 Y65.408 E82.37787 F2400
G0 X143.789 Y65.973 F5400
G1 X124.847 Y47.031 E83.26885 F2400
G0 X124.282 Y47.031 F5400
G1 X143.789 Y66.539 E84.18642 F2400
G0 X143.789 Y67.105 F5400
G1 X123.716 Y47.031 E85.13062 F2400
G0 X123.150 Y47.031 F5400
G1 X143.789 Y67.670 E86.10142 F2400
G0 X143.789 Y68.236 F5400
G1 X122.585 Y47.031 E87.09882 F2400
G0 X122.019 Y47.031 F5400
G1 X143.789 Y68.802 E88.12284 F2400
G0 X143.789 Y69.367 F5400
G1 X121.453 Y47.031 E89.17346 F2400
G0 X120.888 Y47.031 F5400
G1 X143.789 Y69.933 E90.25069 F2400
G0 X143.789 Y70.499 F5400
G1 X120.322 Y47.031 E91.35454 F2400
G0 X119.756 Y47.031 F5400
G1 X131.091 Y58.366 E91.88770 F2400
G0 X130.312 Y58.153 F5400
G1 X119.191 Y47.031 E92.41084 F2400
G0 X118.625 Y47.031 F5400
G1 X129.742 Y58.148 E92.93375 F2400
G0 X129.265 Y58.237 F5400
G1 X118.059 Y47.031 E93.46085 F2400
G0 X117.494 Y47.031 F5400
G1 X128.853 Y58.391 E93.99519 F2400
G0 X128.492 Y58.596 F5400
G1 X116.928 Y47.031 E94.53914 F2400
G0 X116.362 Y47.031 F5400
G1 X128.175 Y58.844 E95.09477 F2400
G0 F3000 E94.09477
G0 X128.626 Y58.940 F5400
G0 X128.853 Y58.787
G0 X129.216 Y58.622
G0 X129.602 Y58.522
G0 X130.000 Y58.488
G0 X130.398 Y58.522
G0 X130.784 Y58.622
G0 X131.147 Y58.787
G0 X131.478 Y59.010
G0 X131.766 Y59.286
G0 X132.003 Y59.607
G0 X132.031 Y59.661
G0 X132.482 Y59.757
G0 F3000 E95.09477
G1 X143.789 Y71.064 E95.62663 F2400
G0 X143.789 Y71.630 F5400
G1 X132.686 Y60.527 E96.14890 F2400
G0 X132.696 Y61.102 F5400
G1 X143.789 Y72.196 E96.67072 F2400
G0 X143.789 Y72.761 F5400
G1 X132.607 Y61.579 E97.19670 F2400
G0 X132.452 Y61.990 F5400
G1 X143.789 Y73.327 E97.72997 F2400
G0 X143.789 Y73.893 F5400
G1 X132.246 Y62.350 E98.27292 F2400
G0 X131.996 Y62.665 F5400
G1 X143.789 Y74.458 E98.82763 F2400
G0 X143.789 Y75.024 F5400
G1 X131.705 Y62.940 E99.39605 F2400
G0 X131.371 Y63.172 F5400
G1 X143.789 Y75.590 E99.98016 F2400
G0 X143.789 Y76.156 F5400
G1 X130.992 Y63.358 E100.58211 F2400
G0 X130.557 Y63.489 F5400
G1 X143.789 Y76.721 E101.20452 F2400
G0 X143.789 Y77.287 F5400
G1 X130.047 Y63.545 E101.85091 F2400
G0 F3000 E100.85091
G0 X108.078 Y76.648 F5400
G0 F3000 E101.85091
G1 X80.499 Y49.069 E103.14815 F2400
G0 X79.954 Y48.541 F5400
;segType:Perimeter
G1 X79.799 Y47.962 E103.16811 F1200
G1 X108.838 Y47.962 E104.13396
G1 X108.838 Y81.781 E105.25880
G1 X79.739 Y81.781 E106.22664
G1 X79.739 Y48.022 E107.34948
G0 X79.799 Y47.962 F5400
G0 X81.399 Y47.962
G0 X80.839 Y48.362
;segType:Loop
G1 X108.438 Y48.362 E108.26743 F2400
G1 X108.438 Y81.381 E109.36566
G1 X80.139 Y81.381 E110.30690
G1 X80.139 Y48.362 E111.40513
G1 X80.639 Y48.362 E111.42176
G0 X80.499 Y49.635 F5400
;segType:HShell
G1 X108.078 Y77.214 E112.71899 F2400
G0 X108.078 Y77.779 F5400
G1 X80.499 Y50.200 E114.01623 F2400
G0 X80.499 Y50.766 F5400
G1 X108.078 Y78.345 E115.31346 F2400
G0 X108.078 Y78.911 F5400
G1 X80.499 Y51.332 E116.61069 F2400
G0 X80.499 Y51.897 F5400
G1 X108.078 Y79.476 E117.90793 F2400
G0 X108.078 Y80.042 F5400
G1 X80.499 Y52.463 E119.20516 F2400
G0 X80.499 Y53.029 F5400
G1 X108.078 Y80.608 E120.50240 F2400
G0 X107.925 Y81.021 F5400
G1 X80.499 Y53.594 E121.79244 F2400
G0 X80.499 Y54.160 F5400
G1 X107.360 Y81.021 E123.05589 F2400
G0 X106.794 Y81.021 F5400
G1 X80.499 Y54.726 E124.29272 F2400
G0 X80.499 Y55.292 F5400
G1 X106.228 Y81.021 E125.50294 F2400
G0 X105.663 Y81.021 F5400
G1 X80.499 Y55.857 E126.68655 F2400
G0 X80.499 Y56.423 F5400
G1 X105.097 Y81.021 E127.84356 F2400
G0 X104.531 Y81.021 F5400
G1 X80.499 Y56.989 E128.97395 F2400
G0 X80.499 Y57.554 F5400
G1 X103.966 Y81.021 E130.07774 F2400
G0 X103.400 Y81.021 F5400
G1 X80.499 Y58.120 E131.15492 F2400
G0 X80.499 Y58.686 F5400
G1 X102.834 Y81.021 E132.20549 F2400
G0 X102.269 Y81.021 F5400
G1 X80.499 Y59.251 E133.22946 F2400
G0 X80.499 Y59.817 F5400
G1 X101.703 Y81.021 E134.22682 F2400
G0 X101.137 Y81.021 F5400
G1 X80.499 Y60.383 E135.19757 F2400
G0 X80.499 Y60.948 F5400
G1 X100.571 Y81.021 E136.14171 F2400
G0 X100.006 Y81.021 F5400
G1 X80.499 Y61.514 E137.05925 F2400
G0 X80.499 Y62.080 F5400
G1 X99.440 Y81.021 E137.95018 F2400
G0 X98.874 Y81.021 F5400
G1 X80.499 Y62.645 E138.81450 F2400
G0 X80.499 Y63.211 F5400
G1 X98.309 Y81.021 E139.65221 F2400
G0 X97.743 Y81.021 F5400
G1 X80.499 Y63.777 E140.46330 F2400
G0 X80.499 Y64.343 F5400
G1 X97.177 Y81.021 E141.24780 F2400
G0 X96.612 Y81.021 F5400
G1 X80.499 Y64.908 E142.00569 F2400
G0 X80.499 Y65.474 F5400
G1 X96.046 Y81.021 E142.73697 F2400
G0 X95.480 Y81.021 F5400
G1 X80.499 Y66.040 E143.44164 F2400
G0 X80.499 Y66.605 F5400
G1 X94.915 Y81.021 E144.11969 F2400
G0 X94.349 Y81.021 F5400
G1 X80.499 Y67.171 E144.77115 F2400
G0 X80.499 Y67.737 F5400
G1 X93.783 Y81.021 E145.39600 F2400
G0 X93.218 Y81.021 F5400
G1 X80.499 Y68.302 E145.99423 F2400
G0 X80.499 Y68.868 F5400
G1 X92.652 Y81.021 E146.56586 F2400
G0 X92.086 Y81.021 F5400
G1 X80.499 Y69.434 E147.11087 F2400
G0 X80.499 Y69.999 F5400
G1 X91.521 Y81.021 E147.62929 F2400
G0 X90.955 Y81.021 F5400
G1 X80.499 Y70.565 E148.12109 F2400
G0 X80.499 Y71.131 F5400
G1 X90.389 Y81.021 E148.58629 F2400
G0 X89.823 Y81.021 F5400
G1 X80.499 Y71.696 E149.02487 F2400
G0 X80.499 Y72.262 F5400
G1 X89.258 Y81.021 E149.43684 F2400
G0 X88.692 Y81.021 F5400
G1 X80.499 Y72.828 E149.82222 F2400
G0 X80.499 Y73.394 F5400
G1 X88.126 Y81.021 E150.18098 F2400
G0 X87.561 Y81.021 F5400
G1 X80.499 Y73.959 E150.51314 F2400
G0 X80.499 Y74.525 F5400
G1 X86.995 Y81.021 E150.81868 F2400
G0 X86.429 Y81.021 F5400
G1 X80.499 Y75.091 E151.09763 F2400
G0 X80.499 Y75.656 F5400
G1 X85.864 Y81.021 E151.34996 F2400
G0 X85.298 Y81.021 F5400
G1 X80.499 Y76.222 E151.57568 F2400
G0 X80.499 Y76.788 F5400
G1 X84.732 Y81.021 E151.77480 F2400
G0 X84.167 Y81.021 F5400
G1 X80.499 Y77.353 E151.94730 F2400
G0 X80.499 Y77.919 F5400
G1 X83.601 Y81.021 E152.09320 F2400
G0 X83.035 Y81.021 F5400
G1 X80.499 Y78.485 E152.21249 F2400
G0 X80.499 Y79.050 F5400
G1 X82.470 Y81.021 E152.30518 F2400
G0 X81.904 Y81.021 F5400
G1 X80.499 Y79.616 E152.37125 F2400
G0 X80.499 Y80.182 F5400
G1 X81.338 Y81.021 E152.41072 F2400
G0 X80.773 Y81.021 F5400
G1 X80.499 Y80.747 E152.42358 F2400
G0 F3000 E151.42358
G0 X80.139 Y80.808 F5400
G0 X108.438 Y76.021
G0 X108.078 Y76.082
G0 F3000 E152.42358
G1 X80.717 Y48.722 E153.71054 F2400
G0 X81.283 Y48.722 F5400
G1 X108.078 Y75.517 E154.97089 F2400
G0 X108.078 Y74.951 F5400
G1 X81.849 Y48.722 E156.20464 F2400
G0 X82.415 Y48.722 F5400
G1 X108.078 Y74.385 E157.41177 F2400
G0 X108.078 Y73.820 F5400
G1 X82.980 Y48.722 E158.59230 F2400
G0 X83.546 Y48.722 F5400
G1 X108.078 Y73.254 E159.74622 F2400
G0 X108.078 Y72.688 F5400
G1 X84.112 Y48.722 E160.87352 F2400
G0 X84.677 Y48.722 F5400
G1 X108.078 Y72.123 E161.97423 F2400
G0 X108.078 Y71.557 F5400
G1 X85.243 Y48.722 E163.04832 F2400
G0 X85.809 Y48.722 F5400
G1 X108.078 Y70.991 E164.09581 F2400
G0 X108.078 Y70.425 F5400
G1 X86.374 Y48.722 E165.11668 F2400
G0 X86.940 Y48.722 F5400
G1 X108.078 Y69.860 E166.11095 F2400
G0 X108.078 Y69.294 F5400
G1 X87.506 Y48.722 E167.07861 F2400
G0 X88.071 Y48.722 F5400
G1 X108.078 Y68.728 E168.01966 F2400
G0 X108.078 Y68.163 F5400
G1 X88.637 Y48.722 E168.93412 F2400
G0 X89.203 Y48.722 F5400
G1 X108.078 Y67.597 E169.82194 F2400
G0 X108.078 Y67.031 F5400
G1 X89.768 Y48.722 E170.68318 F2400
G0 X90.334 Y48.722 F5400
G1 X108.078 Y66.466 E171.51780 F2400
G0 X108.078 Y65.900 F5400
G1 X90.900 Y48.722 E172.32582 F2400
G0 X91.466 Y48.722 F5400
G1 X108.078 Y65.334 E173.10722 F2400
G0 X108.078 Y64.769 F5400
G1 X92.031 Y48.722 E173.86202 F2400
G0 X92.597 Y48.722 F5400
G1 X108.078 Y64.203 E174.59020 F2400
G0 X108.078 Y63.637 F5400
G1 X93.163 Y48.722 E175.29180 F2400
G0 X93.728 Y48.722 F5400
G1 X108.078 Y63.072 E175.96676 F2400
G0 X108.078 Y62.506 F5400
G1 X94.294 Y48.722 E176.61512 F2400
G0 X94.860 Y48.722 F5400
G1 X108.078 Y61.940 E177.23688 F2400
G0 X108.078 Y61.374 F5400
G1 X95.425 Y48.722 E177.83204 F2400
G0 X95.991 Y48.722 F5400
G1 X108.078 Y60.809 E178.40058 F2400
G0 X108.078 Y60.243 F5400
G1 X96.557 Y48.722 E178.94250 F2400
G0 X97.122 Y48.722 F5400
G1 X108.078 Y59.677 E179.45782 F2400
G0 X108.078 Y59.112 F5400
G1 X97.688 Y48.722 E179.94654 F2400
G0 X98.254 Y48.722 F5400
G1 X108.078 Y58.546 E180.40864 F2400
G0 X108.078 Y57.980 F5400
G1 X98.819 Y48.722 E180.84414 F2400
G0 X99.385 Y48.722 F5400
G1 X108.078 Y57.415 E181.25304 F2400
G0 X108.078 Y56.849 F5400
G1 X99.951 Y48.722 E181.63532 F2400
G0 X100.517 Y48.722 F5400
G1 X108.078 Y56.283 E181.99098 F2400
G0 X108.078 Y55.718 F5400
G1 X101.082 Y48.722 E182.32006 F2400
G0 X101.648 Y48.722 F5400
G1 X108.078 Y55.152 E182.62252 F2400
G0 X108.078 Y54.586 F5400
G1 X102.214 Y48.722 E182.89836 F2400
G0 X102.779 Y48.722 F5400
G1 X108.078 Y54.021 E183.14760 F2400
G0 X108.078 Y53.455 F5400
G1 X103.345 Y48.722 E183.37024 F2400
G0 X103.911 Y48.722 F5400
G1 X108.078 Y52.889 E183.56626 F2400
G0 X108.078 Y52.324 F5400
G1 X104.476 Y48.722 E183.73568 F2400
G0 X105.042 Y48.722 F5400
G1 X108.078 Y51.758 E183.87850 F2400
G0 X108.078 Y51.192 F5400
G1 X105.608 Y48.722 E183.99468 F2400
G0 X106.173 Y48.722 F5400
G1 X108.078 Y50.626 E184.08428 F2400
G0 X108.078 Y50.061 F5400
G1 X106.739 Y48.722 E184.14728 F2400
G0 X107.305 Y48.722 F5400
G1 X108.078 Y49.495 E184.18366 F2400
G0 X108.078 Y48.929 F5400
G1 X107.870 Y48.722 E184.19342 F2400
G0 F3000 E183.19342
G0 X107.742 Y48.362 F5400
G0 X108.438 Y50.315
G0 X108.438 Y81.381
G0 X117.091 Y91.402
G0 X120.151 Y94.946
G0 X120.049 Y95.164
G0 X120.004 Y95.612
G0 X120.110 Y96.048
G0 X120.355 Y96.422
G0 X120.713 Y96.696
G0 X121.139 Y96.833
G0 X121.588 Y96.821
G0 X121.725 Y96.769
G0 X127.292 Y103.216
G0 F3000 E184.19342
G1 X121.656 Y97.580 E184.45854 F2400
G0 X122.086 Y97.444 F5400
G1 X126.164 Y101.522 E184.65036 F2400
G0 X126.188 Y101.296 F5400
;segType:Perimeter
G1 X126.988 Y101.308 E184.67698 F1200
G1 X128.082 Y101.326 E184.71338
G1 X127.932 Y110.926 E185.03272
G1 X126.777 Y110.920 E185.07112
G1 X126.624 Y120.654 E185.39492
G1 X92.618 Y120.121 E186.52610
G1 X93.074 Y91.025 E187.49394
G1 X127.080 Y91.558 E188.62512
G1 X126.929 Y101.247 E188.94742
G0 X126.988 Y101.308 F5400
G0 X128.082 Y101.326
G0 X128.074 Y101.831
G0 X127.674 Y101.819
;segType:Loop
G1 X127.538 Y110.524 E189.23696 F2400
G1 X126.383 Y110.518 E189.27538
G1 X126.231 Y120.248 E189.59902
G1 X93.025 Y119.727 E190.70360
G1 X93.468 Y91.432 E191.64484
G1 X126.674 Y91.952 E192.74940
G1 X126.522 Y101.701 E193.07370
G1 X127.576 Y101.718 E193.10878
G0 F3000 E192.10878
G0 X125.937 Y116.003 F5400
G0 F3000 E193.10878
;segType:HShell
G1 X118.091 Y108.157 E193.47786 F2400
G0 X118.099 Y107.600 F5400
G1 X119.160 Y108.660 E193.52774 F2400
G0 F3000 E192.52774
G0 X119.733 Y108.846 F5400
G0 F3000 E193.52774
;segType:Perimeter
G1 X119.814 Y108.050 E193.55436 F1200
G1 X119.853 Y107.662 E193.56732
G1 X120.043 Y107.257 E193.58222
G1 X120.359 Y106.938 E193.59716
G1 X120.763 Y106.741 E193.61210
G1 X121.210 Y106.691 E193.62706
G1 X121.646 Y106.792 E193.64196
G1 X122.026 Y107.033 E193.65692
G1 X122.302 Y107.386 E193.67182
G1 X122.442 Y107.805 E193.68650
G1 X122.459 Y108.045 E193.69452
G1 X122.379 Y108.478 E193.70916
G1 X122.153 Y108.867 E193.72414
G1 X121.811 Y109.159 E193.73906
G1 X121.393 Y109.319 E193.75396
G1 X120.944 Y109.332 E193.76892
G1 X120.517 Y109.194 E193.78382
G1 X120.159 Y108.921 E193.79878
G1 X119.915 Y108.546 E193.81368
G1 X119.822 Y108.168 E193.82662
G0 X119.814 Y108.050 F5400
G0 X119.853 Y107.662
G0 X120.043 Y107.257
G0 X120.359 Y106.938
G0 X120.640 Y106.801
G0 X119.901 Y106.832
;segType:Loop
G1 X120.122 Y106.608 E193.83710 F2400
G1 X120.649 Y106.352 E193.85660
G1 X121.233 Y106.286 E193.87614
G1 X121.803 Y106.418 E193.89560
G1 X122.298 Y106.733 E193.91514
G1 X122.659 Y107.194 E193.93460
G1 X122.838 Y107.726 E193.95326
G1 X122.862 Y108.068 E193.96468
G1 X122.759 Y108.619 E193.98330
G1 X122.465 Y109.127 E194.00286
G1 X122.019 Y109.507 E194.02234
G1 X121.473 Y109.717 E194.04180
G1 X120.886 Y109.733 E194.06132
G1 X120.329 Y109.554 E194.08078
G1 X119.862 Y109.197 E194.10032
G1 X119.542 Y108.708 E194.11976
G1 X119.403 Y108.138 E194.13926
G1 X119.462 Y107.554 E194.15880
G1 X119.711 Y107.025 E194.17826
G1 X119.760 Y106.974 E194.18060
G0 F3000 E193.18060
G0 X127.266 Y104.887 F5400
G0 F3000 E194.18060
;segType:HShell
G1 X118.283 Y95.904 E194.60314 F2400
G0 X118.292 Y95.347 F5400
G1 X119.598 Y96.654 E194.66462 F2400
G0 X119.253 Y95.743 F5400
G1 X118.300 Y94.790 E194.70944 F2400
G0 X117.540 Y94.818 F5400
;segType:Perimeter
G1 X117.268 Y112.157 E195.28620 F1200
G1 X103.869 Y111.947 E195.73190
G1 X104.141 Y94.548 E196.31066
G1 X117.481 Y94.758 E196.75438
G0 X117.540 Y94.818 F5400
G0 X117.515 Y96.418
G0 X117.923 Y95.865
;segType:Loop
G1 X117.661 Y112.563 E197.30984 F2400
G1 X103.462 Y112.341 E197.78216
G1 X103.748 Y94.142 E198.38752
G1 X117.947 Y94.365 E198.85984
G1 X117.926 Y95.665 E198.90310
G0 F3000 E197.90310
G0 X117.374 Y92.166 F5400
G0 F3000 E198.90310
;segType:HShell
G1 X119.581 Y94.373 E199.00688 F2400
G0 X119.847 Y94.074 F5400
G1 X117.949 Y92.175 E199.09618 F2400
G0 X118.523 Y92.184 F5400
G1 X120.136 Y93.797 E199.17204 F2400
G0 X120.517 Y93.612 F5400
G1 X119.098 Y92.193 E199.23878 F2400
G0 X119.673 Y92.202 F5400
G1 X120.949 Y93.479 E199.29882 F2400
G0 X121.018 Y94.236 F5400
;segType:Perimeter
G1 X121.406 Y94.193 E199.31180 F1200
G1 X121.842 Y94.293 E199.32670
G1 X122.222 Y94.535 E199.34166
G1 X122.498 Y94.888 E199.35656
G1 X122.638 Y95.306 E199.37124
G1 X122.655 Y95.546 E199.37926
G1 X122.574 Y95.979 E199.39390
G1 X122.349 Y96.369 E199.40888
G1 X122.007 Y96.660 E199.42382
G1 X121.588 Y96.821 E199.43876
G1 X121.139 Y96.833 E199.45368
G1 X120.713 Y96.696 E199.46858
G1 X120.355 Y96.422 E199.48356
G1 X120.110 Y96.048 E199.49844
G1 X120.004 Y95.612 E199.51336
G1 X120.049 Y95.164 E199.52834
G1 X120.239 Y94.759 E199.54322
G1 X120.555 Y94.439 E199.55816
G1 X120.904 Y94.269 E199.57110
G0 X121.018 Y94.236 F5400
G0 X121.406 Y94.193
G0 X121.842 Y94.293
G0 X122.222 Y94.535
G0 X122.414 Y94.781
G0 X122.227 Y94.064
;segType:Loop
G1 X122.494 Y94.235 E199.58164 F2400
G1 X122.855 Y94.695 E199.60110
G1 X123.034 Y95.227 E199.61976
G1 X123.058 Y95.570 E199.63118
G1 X122.955 Y96.120 E199.64982
G1 X122.661 Y96.629 E199.66936
G1 X122.215 Y97.009 E199.68886
G1 X121.668 Y97.219 E199.70836
G1 X121.082 Y97.235 E199.72786
G1 X120.525 Y97.055 E199.74732
G1 X120.058 Y96.699 E199.76684
G1 X119.738 Y96.209 E199.78630
G1 X119.599 Y95.640 E199.80578
G1 X119.657 Y95.056 E199.82532
G1 X119.906 Y94.526 E199.84478
G1 X120.318 Y94.109 E199.86426
G1 X120.845 Y93.853 E199.88376
G1 X121.429 Y93.787 E199.90328
G1 X121.999 Y93.919 E199.92274
G1 X122.059 Y93.957 E199.92510
G0 F3000 E198.92510
G0 X101.202 Y94.192 F5400
G0 X100.845 Y93.964
G0 X100.408 Y93.863
G0 X99.961 Y93.914
G0 X99.557 Y94.110
G0 X99.457 Y94.211
G0 X98.499 Y94.222
G0 F3000 E199.92510
;segType:HShell
G1 X96.110 Y91.833 E200.03748 F2400
G0 X96.685 Y91.842 F5400
G1 X98.720 Y93.877 E200.13318 F2400
G0 X99.001 Y93.592 F5400
G1 X97.260 Y91.851 E200.21506 F2400
G0 X97.834 Y91.860 F5400
G1 X99.343 Y93.369 E200.28602 F2400
G0 X99.687 Y93.696 F5400
;segType:Perimeter
G1 X100.467 Y93.877 E200.31264 F1200
G1 X100.845 Y93.964 E200.32554
G1 X101.224 Y94.206 E200.34050
G1 X101.500 Y94.559 E200.35540
G1 X101.641 Y94.977 E200.37008
G1 X101.658 Y95.217 E200.37808
G1 X101.577 Y95.651 E200.39276
G1 X101.352 Y96.039 E200.40766
G1 X101.011 Y96.330 E200.42258
G1 X100.591 Y96.492 E200.43754
G1 X100.143 Y96.504 E200.45244
G1 X99.716 Y96.366 E200.46736
G1 X99.358 Y96.093 E200.48234
G1 X99.113 Y95.718 E200.49724
G1 X99.006 Y95.282 E200.51216
G1 X99.051 Y94.835 E200.52714
G1 X99.242 Y94.430 E200.54202
G1 X99.557 Y94.110 E200.55694
G1 X99.961 Y93.914 E200.57188
G1 X100.349 Y93.870 E200.58486
G0 X100.467 Y93.877 F5400
G0 X100.845 Y93.964
G0 X101.224 Y94.206
G0 X101.500 Y94.559
G0 X101.601 Y94.857
G0 X101.664 Y94.119
;segType:Loop
G1 X101.857 Y94.366 E200.59532 F2400
G1 X102.037 Y94.898 E200.61400
G1 X102.060 Y95.241 E200.62542
G1 X101.957 Y95.792 E200.64408
G1 X101.664 Y96.299 E200.66354
G1 X101.219 Y96.679 E200.68302
G1 X100.670 Y96.890 E200.70258
G1 X100.086 Y96.906 E200.72204
G1 X99.528 Y96.726 E200.74152
G1 X99.061 Y96.370 E200.76104
G1 X98.741 Y95.880 E200.78052
G1 X98.601 Y95.311 E200.80000
G1 X98.660 Y94.726 E200.81954
G1 X98.909 Y94.197 E200.83898
G1 X99.321 Y93.780 E200.85846
G1 X99.848 Y93.524 E200.87796
G1 X100.432 Y93.458 E200.89750
G1 X101.002 Y93.590 E200.91696
G1 X101.497 Y93.905 E200.93650
G1 X101.541 Y93.961 E200.93884
G0 F3000 E199.93884
G0 X101.442 Y94.484 F5400
G0 X101.500 Y94.559
G0 X101.641 Y94.977
G0 X101.658 Y95.217
G0 X101.577 Y95.651
G0 X101.352 Y96.039
G0 X101.111 Y96.245
G0 X99.315 Y105.786
G0 F3000 E200.93884
;segType:HShell
G1 X93.691 Y100.162 E201.20336 F2400
G0 X93.700 Y99.605 F5400
G1 X99.744 Y105.650 E201.48766 F2400
G0 F3000 E200.48766
G0 X99.492 Y106.194 F5400
G0 F3000 E201.48766
;segType:Perimeter
G1 X100.271 Y106.375 E201.51426 F1200
G1 X100.649 Y106.463 E201.52716
G1 X101.028 Y106.704 E201.54212
G1 X101.304 Y107.057 E201.55702
G1 X101.445 Y107.476 E201.57170
G1 X101.462 Y107.716 E201.57972
G1 X101.381 Y108.150 E201.59440
G1 X101.156 Y108.537 E201.60928
G1 X100.815 Y108.829 E201.62420
G1 X100.395 Y108.991 E201.63918
G1 X99.947 Y109.002 E201.65406
G1 X99.520 Y108.865 E201.66900
G1 X99.162 Y108.592 E201.68398
G1 X98.917 Y108.217 E201.69888
G1 X98.810 Y107.781 E201.71380
G1 X98.855 Y107.333 E201.72878
G1 X99.046 Y106.928 E201.74366
G1 X99.361 Y106.609 E201.75860
G1 X99.765 Y106.412 E201.77352
G1 X100.153 Y106.368 E201.78652
G0 X100.271 Y106.375 F5400
G0 X100.649 Y106.463
G0 X101.028 Y106.704
G0 X101.304 Y107.057
G0 X101.405 Y107.355
G0 X101.468 Y106.617
;segType:Loop
G1 X101.661 Y106.865 E201.79696 F2400
G1 X101.841 Y107.397 E201.81564
G1 X101.864 Y107.739 E201.82708
G1 X101.761 Y108.291 E201.84574
G1 X101.468 Y108.797 E201.86518
G1 X101.023 Y109.178 E201.88468
G1 X100.474 Y109.389 E201.90422
G1 X99.890 Y109.404 E201.92368
G1 X99.332 Y109.225 E201.94316
G1 X98.865 Y108.868 E201.96270
G1 X98.545 Y108.378 E201.98216
G1 X98.406 Y107.809 E202.00164
G1 X98.464 Y107.225 E202.02118
G1 X98.713 Y106.696 E202.04064
G1 X99.125 Y106.279 E202.06010
G1 X99.652 Y106.022 E202.07960
G1 X100.236 Y105.956 E202.09916
G1 X100.806 Y106.088 E202.11860
G1 X101.301 Y106.404 E202.13814
G1 X101.345 Y106.460 E202.14048
G0 X101.032 Y105.805 F5400
;segType:HShell
G1 X93.718 Y98.491 E202.48452 F2400
G0 X93.709 Y99.048 F5400
G1 X100.253 Y105.592 E202.79232 F2400
G0 F3000 E201.79232
G0 X100.286 Y106.379 F5400
G0 X99.861 Y96.413
G0 X99.716 Y96.366
G0 X99.358 Y96.093
G0 X99.113 Y95.718
G0 X99.006 Y95.282
G0 X99.051 Y94.835
G0 X99.242 Y94.430
G0 X99.557 Y94.110
G0 X99.759 Y94.012
G0 X99.724 Y93.184
G0 F3000 E202.79232
G1 X98.409 Y91.869 E202.85416 F2400
G0 X98.984 Y91.878 F5400
G1 X100.225 Y93.119 E202.91252 F2400
G0 X100.858 Y93.187 F5400
G1 X99.558 Y91.887 E202.97366 F2400
G0 X98.318 Y94.607 F5400
G1 X95.536 Y91.824 E203.10456 F2400
G0 X94.961 Y91.815 F5400
G1 X98.259 Y95.113 E203.25968 F2400
G0 X98.341 Y95.761 F5400
G1 X94.386 Y91.806 E203.44570 F2400
G0 F3000 E202.44570
G0 X93.630 Y104.061 F5400
G0 F3000 E203.44570
G1 X98.429 Y108.860 E203.67142 F2400
G0 X98.064 Y107.929 F5400
G1 X93.639 Y103.504 E203.87956 F2400
G0 X93.648 Y102.947 F5400
G1 X98.086 Y107.385 E204.08832 F2400
G0 X98.202 Y106.936 F5400
G1 X93.656 Y102.390 E204.30212 F2400
G0 X93.665 Y101.833 F5400
G1 X98.383 Y106.551 E204.52404 F2400
G0 X98.647 Y106.250 F5400
G1 X93.674 Y101.276 E204.75798 F2400
G0 X93.683 Y100.719 F5400
G1 X98.934 Y105.971 E205.00500 F2400
G0 X93.395 Y119.099 F5400
G1 X93.673 Y119.377 E205.01812 F2400
G0 X94.248 Y119.386 F5400
G1 X93.403 Y118.542 E205.05784 F2400
G0 X93.412 Y117.985 F5400
G1 X94.823 Y119.395 E205.12418 F2400
G0 X95.397 Y119.404 F5400
G1 X93.421 Y117.428 E205.21714 F2400
G0 X93.430 Y116.871 F5400
G1 X95.972 Y119.413 E205.33674 F2400
G0 X96.547 Y119.422 F5400
G1 X93.438 Y116.314 E205.48294 F2400
G0 X93.447 Y115.757 F5400
G1 X97.121 Y119.431 E205.65576 F2400
G0 X97.696 Y119.440 F5400
G1 X93.456 Y115.200 E205.85520 F2400
G0 X93.464 Y114.643 F5400
G1 X98.271 Y119.449 E206.08128 F2400
G0 X98.845 Y119.458 F5400
G1 X93.473 Y114.086 E206.33396 F2400
G0 X93.482 Y113.529 F5400
G1 X99.420 Y119.467 E206.61328 F2400
G0 X99.995 Y119.476 F5400
G1 X93.491 Y112.972 E206.91922 F2400
G0 X93.499 Y112.415 F5400
G1 X100.570 Y119.485 E207.25178 F2400
G0 X101.144 Y119.494 F5400
G1 X93.508 Y111.858 E207.61094 F2400
G0 X93.517 Y111.301 F5400
G1 X101.719 Y119.503 E207.99674 F2400
G0 X102.294 Y119.512 F5400
G1 X93.526 Y110.744 E208.40916 F2400
G0 X93.534 Y110.187 F5400
G1 X102.868 Y119.521 E208.84820 F2400
G0 X103.443 Y119.530 F5400
G1 X93.543 Y109.630 E209.31388 F2400
G0 X93.552 Y109.074 F5400
G1 X104.018 Y119.539 E209.80616 F2400
G0 X104.592 Y119.548 F5400
G1 X93.560 Y108.517 E210.32506 F2400
G0 X93.569 Y107.960 F5400
G1 X105.167 Y119.557 E210.87060 F2400
G0 X105.742 Y119.566 F5400
G1 X93.578 Y107.403 E211.44274 F2400
G0 X93.587 Y106.846 F5400
G1 X106.316 Y119.576 E212.04150 F2400
G0 X106.891 Y119.585 F5400
G1 X93.595 Y106.289 E212.66690 F2400
G0 X93.604 Y105.732 F5400
G1 X107.466 Y119.594 E213.31890 F2400
G0 X108.041 Y119.603 F5400
G1 X93.613 Y105.175 E213.99754 F2400
G0 X93.622 Y104.618 F5400
G1 X108.615 Y119.612 E214.70280 F2400
G0 X109.190 Y119.621 F5400
G1 X98.973 Y109.404 E215.18338 F2400
G0 X99.899 Y109.764 F5400
G1 X109.765 Y119.630 E215.64742 F2400
G0 X110.339 Y119.639 F5400
G1 X103.401 Y112.700 E215.97378 F2400
G0 X103.975 Y112.709 F5400
G1 X110.914 Y119.648 E216.30016 F2400
G0 X111.489 Y119.657 F5400
G1 X104.550 Y112.718 E216.62652 F2400
G0 X105.125 Y112.727 F5400
G1 X112.063 Y119.666 E216.95290 F2400
G0 X112.638 Y119.675 F5400
G1 X105.700 Y112.736 E217.27926 F2400
G0 X106.274 Y112.745 F5400
G1 X113.213 Y119.684 E217.60564 F2400
G0 X113.787 Y119.693 F5400
G1 X106.849 Y112.754 E217.93200 F2400
G0 X107.424 Y112.763 F5400
G1 X114.362 Y119.702 E218.25838 F2400
G0 X114.937 Y119.711 F5400
G1 X107.998 Y112.772 E218.58474 F2400
G0 X108.573 Y112.781 F5400
G1 X115.512 Y119.720 E218.91112 F2400
G0 X116.086 Y119.729 F5400
G1 X109.148 Y112.790 E219.23748 F2400
G0 X109.722 Y112.799 F5400
G1 X116.661 Y119.738 E219.56386 F2400
G0 X117.236 Y119.747 F5400
G1 X110.297 Y112.808 E219.89022 F2400
G0 X110.872 Y112.817 F5400
G1 X117.810 Y119.756 E220.21660 F2400
G0 X118.385 Y119.765 F5400
G1 X111.446 Y112.826 E220.54296 F2400
G0 X112.021 Y112.835 F5400
G1 X118.960 Y119.774 E220.86934 F2400
G0 X119.534 Y119.783 F5400
G1 X112.596 Y112.844 E221.19570 F2400
G0 X113.171 Y112.853 F5400
G1 X120.109 Y119.792 E221.52208 F2400
G0 X120.684 Y119.801 F5400
G1 X113.745 Y112.862 E221.84844 F2400
G0 X114.320 Y112.871 F5400
G1 X121.259 Y119.810 E222.17482 F2400
G0 X121.833 Y119.819 F5400
G1 X114.895 Y112.880 E222.50120 F2400
G0 X115.469 Y112.889 F5400
G1 X122.408 Y119.828 E222.82756 F2400
G0 X122.983 Y119.837 F5400
G1 X116.044 Y112.898 E223.15394 F2400
G0 X116.619 Y112.907 F5400
G1 X123.557 Y119.846 E223.48030 F2400
G0 X124.132 Y119.855 F5400
G1 X117.193 Y112.916 E223.80668 F2400
G0 X117.768 Y112.925 F5400
G1 X124.707 Y119.864 E224.13304 F2400
G0 X125.281 Y119.873 F5400
G1 X118.021 Y112.612 E224.47456 F2400
G0 X118.029 Y112.055 F5400
G1 X125.856 Y119.882 E224.84270 F2400
G0 X125.885 Y119.345 F5400
G1 X118.038 Y111.498 E225.21178 F2400
G0 X118.047 Y110.941 F5400
G1 X125.893 Y118.788 E225.58086 F2400
G0 X125.902 Y118.231 F5400
G1 X118.056 Y110.384 E225.94994 F2400
G0 X118.064 Y109.827 F5400
G1 X125.911 Y117.674 E226.31902 F2400
G0 X125.920 Y117.117 F5400
G1 X118.073 Y109.270 E226.68810 F2400
G0 X118.082 Y108.714 F5400
G1 X125.928 Y116.560 E227.05718 F2400
G0 X120.481 Y109.981 F5400
G1 X125.946 Y115.446 E227.31424 F2400
G0 X125.955 Y114.889 F5400
G1 X121.152 Y110.086 E227.54014 F2400
G0 X121.662 Y110.031 F5400
G1 X125.963 Y114.332 E227.74248 F2400
G0 X125.972 Y113.775 F5400
G1 X122.070 Y109.874 E227.92602 F2400
G0 X122.410 Y109.647 F5400
G1 X125.981 Y113.218 E228.09398 F2400
G0 X125.990 Y112.661 F5400
G1 X122.715 Y109.387 E228.24798 F2400
G0 X122.932 Y109.038 F5400
G1 X125.998 Y112.104 E228.39220 F2400
G0 X126.007 Y111.547 F5400
G1 X123.118 Y108.659 E228.52808 F2400
G0 X123.207 Y108.182 F5400
G1 X126.016 Y110.991 E228.66018 F2400
G0 X126.024 Y110.434 F5400
G1 X123.168 Y107.577 E228.79456 F2400
G0 X127.257 Y105.444 F5400
G1 X118.274 Y96.461 E229.21710 F2400
G0 X118.265 Y97.018 F5400
G1 X127.249 Y106.001 E229.63964 F2400
G0 X127.240 Y106.558 F5400
G1 X118.257 Y97.575 E230.06220 F2400
G0 X118.248 Y98.132 F5400
G1 X127.231 Y107.115 E230.48474 F2400
G0 X127.223 Y107.672 F5400
G1 X118.239 Y98.688 E230.90728 F2400
G0 X118.230 Y99.245 F5400
G1 X127.214 Y108.229 E231.32984 F2400
G0 X127.205 Y108.786 F5400
G1 X118.222 Y99.802 E231.75240 F2400
G0 X118.213 Y100.359 F5400
G1 X127.196 Y109.343 E232.17496 F2400
G0 X127.188 Y109.900 F5400
G1 X118.204 Y100.916 E232.59752 F2400
G0 X118.195 Y101.473 F5400
G1 X126.883 Y110.161 E233.00614 F2400
G0 X126.314 Y110.158 F5400
G1 X118.187 Y102.030 E233.38846 F2400
G0 X118.178 Y102.587 F5400
G1 X121.590 Y105.999 E233.54894 F2400
G0 X120.977 Y105.952 F5400
G1 X118.169 Y103.144 E233.68102 F2400
G0 X118.161 Y103.701 F5400
G1 X120.489 Y106.029 E233.79052 F2400
G0 X120.108 Y106.214 F5400
G1 X118.152 Y104.258 E233.88256 F2400
G0 X118.143 Y104.815 F5400
G1 X119.775 Y106.447 E233.95932 F2400
G0 X119.494 Y106.732 F5400
G1 X118.134 Y105.372 E234.02326 F2400
G0 X118.126 Y105.929 F5400
G1 X119.283 Y107.087 E234.07772 F2400
G0 X119.108 Y107.476 F5400
G1 X118.117 Y106.486 E234.12432 F2400
G0 X118.108 Y107.043 F5400
G1 X119.056 Y107.990 E234.16890 F2400
G0 X120.221 Y97.276 F5400
G1 X127.275 Y104.330 E234.50072 F2400
G0 X127.284 Y103.773 F5400
G1 X121.105 Y97.595 E234.79134 F2400
G0 X127.301 Y102.659 F5400
G1 X126.706 Y102.064 E234.81934 F2400
G0 X127.281 Y102.073 F5400
G1 X127.310 Y102.102 E234.82070 F2400
G0 X126.173 Y100.965 F5400
G1 X122.471 Y97.264 E234.99482 F2400
G0 X122.777 Y97.003 F5400
G1 X126.182 Y100.408 E235.15498 F2400
G0 X126.190 Y99.851 F5400
G1 X123.037 Y96.698 E235.30332 F2400
G0 X123.244 Y96.340 F5400
G1 X126.199 Y99.294 E235.44230 F2400
G0 X126.208 Y98.737 F5400
G1 X123.364 Y95.893 E235.57606 F2400
G0 X123.405 Y95.369 F5400
G1 X126.216 Y98.180 E235.70832 F2400
G0 X126.225 Y97.624 F5400
G1 X123.204 Y94.602 E235.85044 F2400
G0 F3000 E234.85044
G0 X126.304 Y92.611 F5400
G0 F3000 E235.85044
G1 X125.994 Y92.301 E235.86500 F2400
G0 X125.420 Y92.292 F5400
G1 X126.295 Y93.168 E235.90618 F2400
G0 X126.286 Y93.725 F5400
G1 X124.845 Y92.283 E235.97396 F2400
G0 X124.270 Y92.274 F5400
G1 X126.277 Y94.282 E236.06838 F2400
G0 X126.269 Y94.839 F5400
G1 X123.696 Y92.265 E236.18942 F2400
G0 X123.121 Y92.256 F5400
G1 X126.260 Y95.396 E236.33708 F2400
G0 X126.251 Y95.953 F5400
G1 X122.546 Y92.247 E236.51136 F2400
G0 X121.971 Y92.238 F5400
G1 X126.243 Y96.510 E236.71226 F2400
G0 X126.234 Y97.067 F5400
G1 X121.397 Y92.229 E236.93978 F2400
G0 X122.260 Y93.658 F5400
G1 X120.822 Y92.220 E237.00742 F2400
G0 X120.247 Y92.211 F5400
G1 X121.461 Y93.425 E237.06452 F2400
G0 X118.309 Y94.233 F5400
G1 X119.281 Y95.204 E237.11022 F2400
G0 X119.400 Y94.758 F5400
G1 X116.799 Y92.157 E237.23252 F2400
G0 X116.225 Y92.148 F5400
G1 X118.083 Y94.007 E237.31994 F2400
G0 X117.508 Y93.998 F5400
G1 X115.650 Y92.139 E237.40736 F2400
G0 X115.075 Y92.130 F5400
G1 X116.933 Y93.989 E237.49478 F2400
G0 X116.359 Y93.980 F5400
G1 X114.500 Y92.121 E237.58220 F2400
G0 X113.926 Y92.112 F5400
G1 X115.784 Y93.971 E237.66962 F2400
G0 X115.209 Y93.962 F5400
G1 X113.351 Y92.103 E237.75704 F2400
G0 X112.776 Y92.094 F5400
G1 X114.635 Y93.953 E237.84446 F2400
G0 X114.060 Y93.944 F5400
G1 X112.202 Y92.085 E237.93186 F2400
G0 X111.627 Y92.076 F5400
G1 X113.485 Y93.935 E238.01928 F2400
G0 X112.911 Y93.926 F5400
G1 X111.052 Y92.067 E238.10670 F2400
G0 X110.478 Y92.058 F5400
G1 X112.336 Y93.917 E238.19412 F2400
G0 X111.761 Y93.908 F5400
G1 X109.903 Y92.049 E238.28154 F2400
G0 X109.328 Y92.040 F5400
G1 X111.187 Y93.899 E238.36896 F2400
G0 X110.612 Y93.890 F5400
G1 X108.754 Y92.031 E238.45638 F2400
G0 X108.179 Y92.022 F5400
G1 X110.037 Y93.881 E238.54380 F2400
G0 X109.463 Y93.872 F5400
G1 X107.604 Y92.013 E238.63122 F2400
G0 X107.029 Y92.004 F5400
G1 X108.888 Y93.863 E238.71862 F2400
G0 X108.313 Y93.854 F5400
G1 X106.455 Y91.995 E238.80604 F2400
G0 X105.880 Y91.986 F5400
G1 X107.738 Y93.845 E238.89346 F2400
G0 X107.164 Y93.836 F5400
G1 X105.305 Y91.977 E238.98088 F2400
G0 X104.731 Y91.968 F5400
G1 X106.589 Y93.827 E239.06830 F2400
G0 X106.014 Y93.818 F5400
G1 X104.156 Y91.959 E239.15572 F2400
G0 X103.581 Y91.950 F5400
G1 X105.440 Y93.809 E239.24314 F2400
G0 X104.865 Y93.800 F5400
G1 X103.007 Y91.941 E239.33056 F2400
G0 X102.432 Y91.932 F5400
G1 X104.290 Y93.791 E239.41796 F2400
G0 X103.716 Y93.782 F5400
G1 X101.857 Y91.923 E239.50538 F2400
G0 X101.283 Y91.914 F5400
G1 X103.389 Y94.021 E239.60448 F2400
G0 X103.381 Y94.578 F5400
G1 X100.708 Y91.905 E239.73020 F2400
G0 X100.133 Y91.896 F5400
G1 X103.372 Y95.135 E239.88252 F2400
G0 X103.363 Y95.692 F5400
G1 X102.339 Y94.668 E239.93070 F2400
G0 X102.414 Y95.308 F5400
G1 X103.354 Y96.249 E239.97492 F2400
G0 X103.346 Y96.806 F5400
G1 X102.325 Y95.785 E240.02294 F2400
G0 X102.151 Y96.177 F5400
G1 X103.337 Y97.363 E240.07872 F2400
G0 X103.328 Y97.920 F5400
G1 X101.943 Y96.534 E240.14390 F2400
G0 X101.638 Y96.795 F5400
G1 X103.319 Y98.477 E240.22300 F2400
G0 X103.311 Y99.034 F5400
G1 X101.308 Y97.031 E240.31720 F2400
G0 X100.899 Y97.188 F5400
G1 X103.302 Y99.590 E240.43022 F2400
G0 X103.293 Y100.147 F5400
G1 X100.403 Y97.257 E240.56616 F2400
G0 X99.759 Y97.179 F5400
G1 X103.285 Y100.704 E240.73200 F2400
G0 X103.276 Y101.261 F5400
G1 X93.822 Y91.808 E241.17666 F2400
G0 X93.814 Y92.365 F5400
G1 X103.267 Y101.818 E241.62130 F2400
G0 X103.258 Y102.375 F5400
G1 X93.805 Y92.922 E242.06596 F2400
G0 X93.796 Y93.479 F5400
G1 X103.250 Y102.932 E242.51062 F2400
G0 X103.241 Y103.489 F5400
G1 X93.787 Y94.036 E242.95528 F2400
G0 X93.779 Y94.593 F5400
G1 X103.232 Y104.046 E243.39994 F2400
G0 X103.223 Y104.603 F5400
G1 X93.770 Y95.150 E243.84458 F2400
G0 X93.761 Y95.707 F5400
G1 X103.215 Y105.160 E244.28924 F2400
G0 X103.206 Y105.717 F5400
G1 X93.752 Y96.264 E244.73390 F2400
G0 X93.744 Y96.820 F5400
G1 X103.197 Y106.274 E245.17856 F2400
G0 X103.189 Y106.831 F5400
G1 X93.735 Y97.377 E245.62322 F2400
G0 X93.726 Y97.934 F5400
G1 X103.180 Y107.388 E246.06788 F2400
G0 X103.171 Y107.945 F5400
G1 X102.016 Y106.790 E246.12218 F2400
G0 X102.212 Y107.552 F5400
G1 X103.162 Y108.502 E246.16686 F2400
G0 X103.154 Y109.059 F5400
G1 X102.168 Y108.073 E246.21320 F2400
G0 X102.046 Y108.517 F5400
G1 X103.145 Y109.616 E246.26486 F2400
G0 X103.136 Y110.173 F5400
G1 X101.839 Y108.875 E246.32588 F2400
G0 X101.576 Y109.178 F5400
G1 X103.127 Y110.730 E246.39884 F2400
G0 X103.119 Y111.287 F5400
G1 X101.271 Y109.439 E246.48574 F2400
G0 X100.883 Y109.617 F5400
G1 X103.110 Y111.844 E246.59046 F2400
G0 X103.101 Y112.400 F5400
G1 X100.450 Y109.749 E246.71516 F2400
; ------------------------------------
; Layer #1
; ------------------------------------
G92 E0 ;reset extr
G0 F3000 E-1.00000
G0 F600 Z0.400
G0 X100.711 Y108.868 F7200
G0 X100.997 Y108.699
G0 X101.285 Y108.354
G0 X101.438 Y107.941
G0 X101.462 Y107.700
G0 X101.395 Y107.265
G0 X101.260 Y107.016
G0 X104.096 Y97.451
G0 X104.141 Y94.548
G0 X104.953 Y94.561
G0 X105.941 Y91.227
G0 X127.137 Y91.559
G0 X125.849 Y84.470
G0 X118.977 Y46.671
G0 X119.042 Y47.031
G0 F3000 E0.00000
;segType:HShell
G1 X116.211 Y49.863 E0.13321 F3600
G0 X116.211 Y49.297 F7200
G1 X118.477 Y47.031 E0.23980 F3600
G0 X117.911 Y47.031 F7200
G1 X116.211 Y48.732 E0.31979 F3600
G0 X116.211 Y48.166 F7200
G1 X117.345 Y47.031 E0.37318 F3600
G0 X116.780 Y47.031 F7200
G1 X116.211 Y47.600 E0.39995 F3600
G0 X116.211 Y47.035 F7200
G1 X116.214 Y47.031 E0.40012 F3600
G0 X115.717 Y47.044 F7200
;segType:Perimeter
G1 X115.510 Y46.271 E0.42672 F1800
G1 X144.550 Y46.271 E1.39257
G1 X144.550 Y84.870 E2.67638
G1 X115.450 Y84.870 E3.64423
G1 X115.450 Y46.331 E4.92604
G0 X115.510 Y46.271 F7200
G0 X117.110 Y46.271
G0 X116.550 Y46.671
;segType:Loop
G1 X144.150 Y46.671 E5.84400 F3600
G1 X144.150 Y84.470 E7.10120
G1 X115.850 Y84.470 E8.04244
G1 X115.850 Y46.671 E9.29964
G1 X116.350 Y46.671 E9.31627
G0 F3000 E8.31627
G0 X116.210 Y75.885 F7200
G0 F3000 E9.31627
;segType:HShell
G1 X128.818 Y63.278 E9.90927 F3600
G0 X129.082 Y62.850 F7200
;segType:Perimeter
G1 X128.610 Y62.204 E9.93588 F1800
G1 X128.431 Y62.000 E9.94489
G1 X128.258 Y61.719 E9.95589
G1 X128.134 Y61.412 E9.96691
G1 X128.065 Y61.088 E9.97791
G1 X128.051 Y60.758 E9.98891
G1 X128.093 Y60.429 E9.99992
G1 X128.189 Y60.113 E10.01093
G1 X128.339 Y59.817 E10.02194
G1 X128.535 Y59.551 E10.03294
G1 X128.774 Y59.322 E10.04396
G1 X129.048 Y59.137 E10.05496
G1 X129.350 Y59.001 E10.06596
G1 X129.670 Y58.917 E10.07697
G1 X130.000 Y58.889 E10.08798
G1 X130.330 Y58.917 E10.09899
G1 X130.650 Y59.001 E10.10999
G1 X130.952 Y59.137 E10.12100
G1 X131.226 Y59.322 E10.13200
G1 X131.465 Y59.551 E10.14302
G1 X131.661 Y59.817 E10.15402
G1 X131.810 Y60.113 E10.16503
G1 X131.907 Y60.429 E10.17603
G1 X131.949 Y60.758 E10.18705
G1 X131.935 Y61.088 E10.19805
G1 X131.866 Y61.412 E10.20905
G1 X131.742 Y61.719 E10.22007
G1 X131.569 Y62.000 E10.23107
G1 X131.350 Y62.249 E10.24208
G1 X131.093 Y62.457 E10.25309
G1 X130.804 Y62.618 E10.26409
G1 X130.492 Y62.729 E10.27510
G1 X130.165 Y62.784 E10.28611
G1 X129.835 Y62.784 E10.29711
G1 X129.508 Y62.729 E10.30812
G1 X129.196 Y62.618 E10.31913
G1 X128.907 Y62.457 E10.33013
G1 X128.697 Y62.287 E10.33915
G0 X128.610 Y62.204 F7200
G0 X128.431 Y62.000
G0 X128.258 Y61.719
G0 X128.134 Y61.412
G0 X128.065 Y61.088
G0 X128.051 Y60.758
G0 X128.051 Y60.752
G0 X127.650 Y60.741
G0 X127.666 Y61.139
G0 X127.729 Y61.431
;segType:Loop
G1 X127.666 Y61.139 E10.34909 F3600
G1 X127.650 Y60.741 E10.36235
G1 X127.700 Y60.345 E10.37562
G1 X127.817 Y59.963 E10.38891
G1 X127.997 Y59.607 E10.40218
G1 X128.234 Y59.286 E10.41544
G1 X128.522 Y59.010 E10.42872
G1 X128.853 Y58.787 E10.44199
G1 X129.216 Y58.622 E10.45525
G1 X129.602 Y58.522 E10.46853
G1 X130.000 Y58.488 E10.48181
G1 X130.398 Y58.522 E10.49508
G1 X130.784 Y58.622 E10.50835
G1 X131.147 Y58.787 E10.52161
G1 X131.478 Y59.010 E10.53488
G1 X131.766 Y59.286 E10.54817
G1 X132.003 Y59.607 E10.56143
G1 X132.183 Y59.963 E10.57471
G1 X132.300 Y60.345 E10.58798
G1 X132.350 Y60.741 E10.60125
G1 X132.334 Y61.139 E10.61451
G1 X132.250 Y61.529 E10.62779
G1 X132.101 Y61.900 E10.64107
G1 X131.892 Y62.239 E10.65433
G1 X131.628 Y62.539 E10.66760
G1 X131.317 Y62.790 E10.68088
G1 X130.969 Y62.984 E10.69415
G1 X130.593 Y63.117 E10.70742
G1 X130.199 Y63.184 E10.72070
G1 X129.801 Y63.184 E10.73395
G1 X129.407 Y63.117 E10.74723
G1 X129.031 Y62.984 E10.76051
G1 X128.683 Y62.790 E10.77378
G1 X128.372 Y62.539 E10.78705
G1 X128.108 Y62.239 E10.80033
G1 X127.900 Y61.900 E10.81359
G0 X129.226 Y63.435 F7200
;segType:HShell
G1 X116.210 Y76.450 E11.42578 F3600
G0 X116.210 Y77.016 F7200
G1 X129.695 Y63.532 E12.06005 F3600
G0 X130.251 Y63.541 F7200
G1 X116.210 Y77.582 E12.72048 F3600
G0 X116.210 Y78.147 F7200
G1 X131.004 Y63.354 E13.41633 F3600
G0 X132.509 Y61.849 F7200
G1 X143.789 Y50.568 E13.94691 F3600
G0 X143.789 Y50.003 F7200
G1 X132.696 Y61.096 E14.46873 F3600
G0 X132.688 Y60.539 F7200
G1 X143.789 Y49.437 E14.99093 F3600
G0 X143.789 Y48.871 F7200
G1 X132.592 Y60.069 E15.51763 F3600
G0 X132.434 Y59.661 F7200
G1 X143.789 Y48.306 E16.05176 F3600
G0 X143.789 Y47.740 F7200
G1 X132.226 Y59.303 E16.59565 F3600
G0 X131.976 Y58.988 F7200
G1 X143.789 Y47.174 E17.15134 F3600
G0 X143.367 Y47.031 F7200
G1 X131.684 Y58.714 E17.70088 F3600
G0 X131.346 Y58.486 F7200
G1 X142.801 Y47.031 E18.23970 F3600
G0 X142.236 Y47.031 F7200
G1 X130.960 Y58.307 E18.77007 F3600
G0 X130.520 Y58.181 F7200
G1 X141.670 Y47.031 E19.29454 F3600
G0 X141.104 Y47.031 F7200
G1 X130.008 Y58.127 E19.81647 F3600
G0 X129.356 Y58.214 F7200
G1 X140.539 Y47.031 E20.34246 F3600
G0 X143.789 Y51.134 F7200
G1 X116.210 Y78.713 E21.63969 F3600
G0 X116.210 Y79.279 F7200
G1 X143.789 Y51.700 E22.93693 F3600
G0 X143.789 Y52.265 F7200
G1 X116.210 Y79.844 E24.23416 F3600
G0 X116.210 Y80.410 F7200
G1 X143.789 Y52.831 E25.53139 F3600
G0 X143.789 Y53.397 F7200
G1 X116.210 Y80.976 E26.82862 F3600
G0 X116.210 Y81.542 F7200
G1 X143.789 Y53.963 E28.12585 F3600
G0 X143.789 Y54.528 F7200
G1 X116.210 Y82.107 E29.42308 F3600
G0 X116.210 Y82.673 F7200
G1 X143.789 Y55.094 E30.72032 F3600
G0 X143.789 Y55.660 F7200
G1 X116.210 Y83.239 E32.01755 F3600
G0 X116.210 Y83.804 F7200
G1 X143.789 Y56.225 E33.31478 F3600
G0 X143.789 Y56.791 F7200
G1 X116.470 Y84.110 E34.59978 F3600
G0 X117.036 Y84.110 F7200
G1 X143.789 Y57.357 E35.85817 F3600
G0 X143.789 Y57.922 F7200
G1 X117.602 Y84.110 E37.08996 F3600
G0 X118.168 Y84.110 F7200
G1 X143.789 Y58.488 E38.29514 F3600
G0 X143.789 Y59.054 F7200
G1 X118.733 Y84.110 E39.47371 F3600
G0 X119.299 Y84.110 F7200
G1 X143.789 Y59.619 E40.62567 F3600
G0 X143.789 Y60.185 F7200
G1 X119.865 Y84.110 E41.75102 F3600
G0 X120.430 Y84.110 F7200
G1 X143.789 Y60.751 E42.84977 F3600
G0 X143.789 Y61.316 F7200
G1 X120.996 Y84.110 E43.92190 F3600
G0 X121.562 Y84.110 F7200
G1 X143.789 Y61.882 E44.96743 F3600
G0 X143.789 Y62.448 F7200
G1 X122.127 Y84.110 E45.98635 F3600
G0 X122.693 Y84.110 F7200
G1 X143.789 Y63.014 E46.97867 F3600
G0 X143.789 Y63.579 F7200
G1 X123.259 Y84.110 E47.94437 F3600
G0 X123.824 Y84.110 F7200
G1 X143.789 Y64.145 E48.88346 F3600
G0 X143.789 Y64.711 F7200
G1 X124.390 Y84.110 E49.79595 F3600
G0 X124.956 Y84.110 F7200
G1 X143.789 Y65.276 E50.68183 F3600
G0 X143.789 Y65.842 F7200
G1 X125.521 Y84.110 E51.54110 F3600
G0 X126.087 Y84.110 F7200
G1 X143.789 Y66.408 E52.37377 F3600
G0 X143.789 Y66.973 F7200
G1 X126.653 Y84.110 E53.17982 F3600
G0 X127.219 Y84.110 F7200
G1 X143.789 Y67.539 E53.95927 F3600
G0 X143.789 Y68.105 F7200
G1 X127.784 Y84.110 E54.71210 F3600
G0 X128.350 Y84.110 F7200
G1 X143.789 Y68.670 E55.43833 F3600
G0 X143.789 Y69.236 F7200
G1 X128.916 Y84.110 E56.13796 F3600
G0 X129.481 Y84.110 F7200
G1 X143.789 Y69.802 E56.81097 F3600
G0 X143.789 Y70.367 F7200
G1 X130.047 Y84.110 E57.45738 F3600
G0 X130.613 Y84.110 F7200
G1 X143.789 Y70.933 E58.07717 F3600
G0 X143.789 Y71.499 F7200
G1 X131.178 Y84.110 E58.67036 F3600
G0 X131.744 Y84.110 F7200
G1 X143.789 Y72.064 E59.23694 F3600
G0 X143.789 Y72.630 F7200
G1 X132.310 Y84.110 E59.77692 F3600
G0 X132.875 Y84.110 F7200
G1 X143.789 Y73.196 E60.29029 F3600
G0 X143.789 Y73.762 F7200
G1 X133.441 Y84.110 E60.77704 F3600
G0 X134.007 Y84.110 F7200
G1 X143.789 Y74.327 E61.23719 F3600
G0 X143.789 Y74.893 F7200
G1 X134.572 Y84.110 E61.67073 F3600
G0 X135.138 Y84.110 F7200
G1 X143.789 Y75.459 E62.07766 F3600
G0 X143.789 Y76.024 F7200
G1 X135.704 Y84.110 E62.45799 F3600
G0 X136.270 Y84.110 F7200
G1 X143.789 Y76.590 E62.81170 F3600
G0 X143.789 Y77.156 F7200
G1 X136.835 Y84.110 E63.13881 F3600
G0 X137.401 Y84.110 F7200
G1 X143.789 Y77.721 E63.43931 F3600
G0 X143.789 Y78.287 F7200
G1 X137.967 Y84.110 E63.71320 F3600
G0 X138.532 Y84.110 F7200
G1 X143.789 Y78.853 E63.96048 F3600
G0 X143.789 Y79.418 F7200
G1 X139.098 Y84.110 E64.18115 F3600
G0 X139.664 Y84.110 F7200
G1 X143.789 Y79.984 E64.37522 F3600
G0 X143.789 Y80.550 F7200
G1 X140.229 Y84.110 E64.54268 F3600
G0 X140.795 Y84.110 F7200
G1 X143.789 Y81.115 E64.68354 F3600
G0 X143.789 Y81.681 F7200
G1 X141.361 Y84.110 E64.79778 F3600
G0 X141.926 Y84.110 F7200
G1 X143.789 Y82.247 E64.88541 F3600
G0 X143.789 Y82.813 F7200
G1 X142.492 Y84.110 E64.94644 F3600
G0 X143.058 Y84.110 F7200
G1 X143.789 Y83.378 E64.98085 F3600
G0 X143.789 Y83.944 F7200
G1 X143.623 Y84.110 E64.98867 F3600
G0 F3000 E63.98867
G0 X144.150 Y84.279 F7200
G0 X115.850 Y75.203
G0 X116.210 Y75.319
G0 F3000 E64.98867
G1 X128.458 Y63.071 E65.56476 F3600
G0 X128.145 Y62.819 F7200
G1 X116.210 Y74.753 E66.12613 F3600
G0 X116.210 Y74.188 F7200
G1 X127.877 Y62.521 E66.67488 F3600
G0 X127.650 Y62.182 F7200
G1 X116.210 Y73.622 E67.21298 F3600
G0 X116.210 Y73.056 F7200
G1 X127.470 Y61.797 E67.74259 F3600
G0 X127.345 Y61.356 F7200
G1 X116.210 Y72.491 E68.26632 F3600
G0 X116.210 Y71.925 F7200
G1 X127.293 Y60.842 E68.78763 F3600
G0 X127.367 Y60.203 F7200
G1 X116.210 Y71.359 E69.31240 F3600
G0 X116.210 Y70.793 F7200
G1 X139.973 Y47.031 E70.43010 F3600
G0 X139.407 Y47.031 F7200
G1 X116.210 Y70.228 E71.52120 F3600
G0 X116.210 Y69.662 F7200
G1 X138.841 Y47.031 E72.58570 F3600
G0 X138.276 Y47.031 F7200
G1 X116.210 Y69.096 E73.62358 F3600
G0 X116.211 Y68.531 F7200
G1 X137.710 Y47.031 E74.63486 F3600
G0 X137.144 Y47.031 F7200
G1 X116.211 Y67.965 E75.61952 F3600
G0 X116.211 Y67.399 F7200
G1 X136.579 Y47.031 E76.57759 F3600
G0 X136.013 Y47.031 F7200
G1 X116.211 Y66.834 E77.50904 F3600
G0 X116.211 Y66.268 F7200
G1 X135.447 Y47.031 E78.41388 F3600
G0 X134.882 Y47.031 F7200
G1 X116.211 Y65.702 E79.29212 F3600
G0 X116.211 Y65.137 F7200
G1 X134.316 Y47.031 E80.14375 F3600
G0 X133.750 Y47.031 F7200
G1 X116.211 Y64.571 E80.96877 F3600
G0 X116.211 Y64.005 F7200
G1 X133.185 Y47.031 E81.76718 F3600
G0 X132.619 Y47.031 F7200
G1 X116.211 Y63.440 E82.53898 F3600
G0 X116.211 Y62.874 F7200
G1 X132.053 Y47.031 E83.28417 F3600
G0 X131.488 Y47.031 F7200
G1 X116.211 Y62.308 E84.00276 F3600
G0 X116.211 Y61.743 F7200
G1 X130.922 Y47.031 E84.69474 F3600
G0 X130.356 Y47.031 F7200
G1 X116.211 Y61.177 E85.36011 F3600
G0 X116.211 Y60.611 F7200
G1 X129.791 Y47.031 E85.99887 F3600
G0 X129.225 Y47.031 F7200
G1 X116.211 Y60.045 E86.61102 F3600
G0 X116.211 Y59.480 F7200
G1 X128.659 Y47.031 E87.19657 F3600
G0 X128.093 Y47.031 F7200
G1 X116.211 Y58.914 E87.75551 F3600
G0 X116.211 Y58.348 F7200
G1 X127.528 Y47.031 E88.28783 F3600
G0 X126.962 Y47.031 F7200
G1 X116.211 Y57.783 E88.79356 F3600
G0 X116.211 Y57.217 F7200
G1 X126.396 Y47.031 E89.27267 F3600
G0 X125.831 Y47.031 F7200
G1 X116.211 Y56.651 E89.72517 F3600
G0 X116.211 Y56.086 F7200
G1 X125.265 Y47.031 E90.15107 F3600
G0 X124.699 Y47.031 F7200
G1 X116.211 Y55.520 E90.55036 F3600
G0 X116.211 Y54.954 F7200
G1 X124.134 Y47.031 E90.92304 F3600
G0 X123.568 Y47.031 F7200
G1 X116.211 Y54.389 E91.26911 F3600
G0 X116.211 Y53.823 F7200
G1 X123.002 Y47.031 E91.58858 F3600
G0 X122.437 Y47.031 F7200
G1 X116.211 Y53.257 E91.88143 F3600
G0 X116.211 Y52.692 F7200
G1 X121.871 Y47.031 E92.14768 F3600
G0 X121.305 Y47.031 F7200
G1 X116.211 Y52.126 E92.38732 F3600
G0 X116.211 Y51.560 F7200
G1 X120.740 Y47.031 E92.60035 F3600
G0 X120.174 Y47.031 F7200
G1 X116.211 Y50.994 E92.78677 F3600
G0 X116.211 Y50.429 F7200
G1 X119.608 Y47.031 E92.94659 F3600
G0 F3000 E91.94659
G0 X108.438 Y48.362 F7200
G0 X108.302 Y48.362
G0 X80.139 Y51.676
G0 X80.499 Y51.633
G0 F3000 E92.94659
G1 X83.411 Y48.722 E93.08354 F3600
G0 X82.845 Y48.722 F7200
G1 X80.499 Y51.068 E93.19389 F3600
G0 X80.499 Y50.502 F7200
G1 X82.279 Y48.722 E93.27763 F3600
G0 X81.714 Y48.722 F7200
G1 X80.499 Y49.936 E93.33476 F3600
G0 X80.499 Y49.371 F7200
G1 X81.148 Y48.722 E93.36529 F3600
G0 X80.499 Y48.805 F7200
G1 X80.582 Y48.722 E93.36920 F3600
G0 X79.954 Y48.541 F7200
;segType:Perimeter
G1 X79.799 Y47.962 E93.38916 F1800
G1 X108.838 Y47.962 E94.35501
G1 X108.838 Y81.781 E95.47985
G1 X79.739 Y81.781 E96.44769
G1 X79.739 Y48.022 E97.57053
G0 X79.799 Y47.962 F7200
G0 X81.399 Y47.962
G0 X80.839 Y48.362
;segType:Loop
G1 X108.438 Y48.362 E98.48849 F3600
G1 X108.438 Y81.381 E99.58672
G1 X80.139 Y81.381 E100.52795
G1 X80.139 Y48.362 E101.62618
G1 X80.639 Y48.362 E101.64281
G0 F3000 E100.64281
G0 X83.976 Y48.722 F7200
G0 F3000 E101.64281
;segType:HShell
G1 X80.499 Y52.199 E101.80638 F3600
G0 X80.499 Y52.765 F7200
G1 X84.542 Y48.722 E101.99655 F3600
G0 X85.108 Y48.722 F7200
G1 X80.499 Y53.330 E102.21333 F3600
G0 X80.499 Y53.896 F7200
G1 X85.674 Y48.722 E102.45672 F3600
G0 X86.239 Y48.722 F7200
G1 X80.499 Y54.462 E102.72672 F3600
G0 X80.499 Y55.027 F7200
G1 X86.805 Y48.722 E103.02332 F3600
G0 X87.371 Y48.722 F7200
G1 X80.499 Y55.593 E103.34653 F3600
G0 X80.499 Y56.159 F7200
G1 X87.936 Y48.722 E103.69636 F3600
G0 X88.502 Y48.722 F7200
G1 X80.499 Y56.725 E104.07278 F3600
G0 X80.499 Y57.290 F7200
G1 X89.068 Y48.722 E104.47582 F3600
G0 X89.633 Y48.722 F7200
G1 X80.499 Y57.856 E104.90547 F3600
G0 X80.499 Y58.422 F7200
G1 X90.199 Y48.722 E105.36172 F3600
G0 X90.765 Y48.722 F7200
G1 X80.499 Y58.987 E105.84459 F3600
G0 X80.499 Y59.553 F7200
G1 X91.330 Y48.722 E106.35406 F3600
G0 X91.896 Y48.722 F7200
G1 X80.499 Y60.119 E106.89014 F3600
G0 X80.499 Y60.684 F7200
G1 X92.462 Y48.722 E107.45283 F3600
G0 X93.027 Y48.722 F7200
G1 X80.499 Y61.250 E108.04212 F3600
G0 X80.499 Y61.816 F7200
G1 X93.593 Y48.722 E108.65803 F3600
G0 X94.159 Y48.722 F7200
G1 X80.499 Y62.381 E109.30054 F3600
G0 X80.499 Y62.947 F7200
G1 X94.725 Y48.722 E109.96966 F3600
G0 X95.290 Y48.722 F7200
G1 X80.499 Y63.513 E110.66538 F3600
G0 X80.499 Y64.078 F7200
G1 X95.856 Y48.722 E111.38772 F3600
G0 X96.422 Y48.722 F7200
G1 X80.499 Y64.644 E112.13667 F3600
G0 X80.499 Y65.210 F7200
G1 X96.987 Y48.722 E112.91222 F3600
G0 X97.553 Y48.722 F7200
G1 X80.499 Y65.776 E113.71438 F3600
G0 X80.499 Y66.341 F7200
G1 X98.119 Y48.722 E114.54314 F3600
G0 X98.684 Y48.722 F7200
G1 X80.499 Y66.907 E115.39852 F3600
G0 X80.499 Y67.473 F7200
G1 X99.250 Y48.722 E116.28051 F3600
G0 X99.816 Y48.722 F7200
G1 X80.499 Y68.038 E117.18910 F3600
G0 X80.499 Y68.604 F7200
G1 X100.381 Y48.722 E118.12431 F3600
G0 X100.947 Y48.722 F7200
G1 X80.499 Y69.170 E119.08611 F3600
G0 X80.499 Y69.735 F7200
G1 X101.513 Y48.722 E120.07453 F3600
G0 X102.078 Y48.722 F7200
G1 X80.499 Y70.301 E121.08955 F3600
G0 X80.499 Y70.867 F7200
G1 X102.644 Y48.722 E122.13119 F3600
G0 X103.210 Y48.722 F7200
G1 X80.499 Y71.432 E123.19943 F3600
G0 X80.499 Y71.998 F7200
G1 X103.776 Y48.722 E124.29428 F3600
G0 X104.341 Y48.722 F7200
G1 X80.499 Y72.564 E125.41574 F3600
G0 X80.499 Y73.129 F7200
G1 X104.907 Y48.722 E126.56380 F3600
G0 X105.473 Y48.722 F7200
G1 X80.499 Y73.695 E127.73848 F3600
G0 X80.499 Y74.261 F7200
G1 X106.038 Y48.722 E128.93976 F3600
G0 X106.604 Y48.722 F7200
G1 X80.499 Y74.827 E130.16765 F3600
G0 X80.499 Y75.392 F7200
G1 X107.170 Y48.722 E131.42215 F3600
G0 X107.735 Y48.722 F7200
G1 X80.499 Y75.958 E132.70326 F3600
G0 X80.499 Y76.524 F7200
G1 X108.078 Y48.945 E134.00049 F3600
G0 X108.078 Y49.510 F7200
G1 X80.499 Y77.089 E135.29771 F3600
G0 X80.499 Y77.655 F7200
G1 X108.078 Y50.076 E136.59494 F3600
G0 X108.078 Y50.642 F7200
G1 X80.499 Y78.221 E137.89217 F3600
G0 X80.499 Y78.786 F7200
G1 X108.078 Y51.207 E139.18939 F3600
G0 X108.078 Y51.773 F7200
G1 X80.499 Y79.352 E140.48662 F3600
G0 X80.499 Y79.918 F7200
G1 X108.078 Y52.339 E141.78384 F3600
G0 X108.078 Y52.904 F7200
G1 X80.499 Y80.483 E143.08107 F3600
G0 X80.527 Y81.021 F7200
G1 X108.078 Y53.470 E144.37697 F3600
G0 X108.078 Y54.036 F7200
G1 X81.093 Y81.021 E145.64626 F3600
G0 X81.659 Y81.021 F7200
G1 X108.078 Y54.601 E146.88895 F3600
G0 X108.078 Y55.167 F7200
G1 X82.224 Y81.021 E148.10503 F3600
G0 X82.790 Y81.021 F7200
G1 X108.078 Y55.733 E149.29449 F3600
G0 X108.078 Y56.298 F7200
G1 X83.356 Y81.021 E150.45735 F3600
G0 X83.921 Y81.021 F7200
G1 X108.078 Y56.864 E151.59361 F3600
G0 X108.078 Y57.430 F7200
G1 X84.487 Y81.021 E152.70326 F3600
G0 X85.053 Y81.021 F7200
G1 X108.078 Y57.996 E153.78630 F3600
G0 X108.078 Y58.561 F7200
G1 X85.619 Y81.021 E154.84273 F3600
G0 X86.184 Y81.021 F7200
G1 X108.078 Y59.127 E155.87254 F3600
G0 X108.078 Y59.693 F7200
G1 X86.750 Y81.021 E156.87576 F3600
G0 X87.316 Y81.021 F7200
G1 X108.078 Y60.258 E157.85237 F3600
G0 X108.078 Y60.824 F7200
G1 X87.881 Y81.021 E158.80237 F3600
G0 X88.447 Y81.021 F7200
G1 X108.078 Y61.390 E159.72575 F3600
G0 X108.078 Y61.955 F7200
G1 X89.013 Y81.021 E160.62253 F3600
G0 X89.578 Y81.021 F7200
G1 X108.078 Y62.521 E161.49271 F3600
G0 X108.078 Y63.087 F7200
G1 X90.144 Y81.021 E162.33627 F3600
G0 X90.710 Y81.021 F7200
G1 X108.078 Y63.652 E163.15323 F3600
G0 X108.078 Y64.218 F7200
G1 X91.275 Y81.021 E163.94357 F3600
G0 X91.841 Y81.021 F7200
G1 X108.078 Y64.784 E164.70731 F3600
G0 X108.078 Y65.349 F7200
G1 X92.407 Y81.021 E165.44444 F3600
G0 X92.972 Y81.021 F7200
G1 X108.078 Y65.915 E166.15497 F3600
G0 X108.078 Y66.481 F7200
G1 X93.538 Y81.021 E166.83888 F3600
G0 X94.104 Y81.021 F7200
G1 X108.078 Y67.047 E167.49619 F3600
G0 X108.078 Y67.612 F7200
G1 X94.669 Y81.021 E168.12688 F3600
G0 X95.235 Y81.021 F7200
G1 X108.078 Y68.178 E168.73098 F3600
G0 X108.078 Y68.744 F7200
G1 X95.801 Y81.021 E169.30846 F3600
G0 X96.367 Y81.021 F7200
G1 X108.078 Y69.309 E169.85932 F3600
G0 X108.078 Y69.875 F7200
G1 X96.932 Y81.021 E170.38360 F3600
G0 X97.498 Y81.021 F7200
G1 X108.078 Y70.441 E170.88124 F3600
G0 X108.078 Y71.006 F7200
G1 X98.064 Y81.021 E171.35230 F3600
G0 X98.629 Y81.021 F7200
G1 X108.078 Y71.572 E171.79674 F3600
G0 X108.078 Y72.138 F7200
G1 X99.195 Y81.021 E172.21456 F3600
G0 X99.761 Y81.021 F7200
G1 X108.078 Y72.703 E172.60578 F3600
G0 X108.078 Y73.269 F7200
G1 X100.326 Y81.021 E172.97042 F3600
G0 X100.892 Y81.021 F7200
G1 X108.078 Y73.835 E173.30842 F3600
G0 X108.078 Y74.400 F7200
G1 X101.458 Y81.021 E173.61982 F3600
G0 X102.023 Y81.021 F7200
G1 X108.078 Y74.966 E173.90462 F3600
G0 X108.078 Y75.532 F7200
G1 X102.589 Y81.021 E174.16280 F3600
G0 X103.155 Y81.021 F7200
G1 X108.078 Y76.098 E174.39438 F3600
G0 X108.078 Y76.663 F7200
G1 X103.720 Y81.021 E174.59934 F3600
G0 X104.286 Y81.021 F7200
G1 X108.078 Y77.229 E174.77770 F3600
G0 X108.078 Y77.795 F7200
G1 X104.852 Y81.021 E174.92946 F3600
G0 X105.418 Y81.021 F7200
G1 X108.078 Y78.360 E175.05460 F3600
G0 X108.078 Y78.926 F7200
G1 X105.983 Y81.021 E175.15314 F3600
G0 X106.549 Y81.021 F7200
G1 X108.078 Y79.492 E175.22506 F3600
G0 X108.078 Y80.057 F7200
G1 X107.115 Y81.021 E175.27038 F3600
G0 X107.680 Y81.021 F7200
G1 X108.078 Y80.623 E175.28910 F3600
G0 F3000 E174.28910
G0 X108.438 Y81.381 F7200
G0 X117.562 Y91.409
G0 X120.424 Y94.556
G0 X120.749 Y94.323
G0 X121.181 Y94.198
G0 X121.629 Y94.224
G0 X122.043 Y94.398
G0 X122.375 Y94.700
G0 X122.588 Y95.096
G0 X122.656 Y95.531
G0 X122.631 Y95.772
G0 X122.478 Y96.184
G0 X122.205 Y96.512
G0 X126.230 Y100.937
G0 F3000 E175.28910
G1 X121.219 Y105.949 E175.52482 F3600
G0 X120.579 Y106.023 F7200
G1 X126.239 Y100.363 E175.79106 F3600
G0 X126.245 Y101.297 F7200
;segType:Perimeter
G1 X127.045 Y101.309 E175.81768 F1800
G1 X128.514 Y101.332 E175.86656
G1 X128.364 Y110.930 E176.18582
G1 X126.834 Y110.906 E176.23672
G1 X126.681 Y120.655 E176.56100
G1 X91.916 Y120.110 E177.71744
G1 X92.372 Y91.014 E178.68528
G1 X127.137 Y91.559 E179.84172
G1 X126.986 Y101.248 E180.16402
G0 X127.045 Y101.309 F7200
G0 X128.514 Y101.332
G0 X128.512 Y101.462
G0 X128.078 Y101.726
;segType:Loop
G1 X128.108 Y101.726 E180.16500 F3600
G1 X127.970 Y110.524 E180.45768
G1 X126.440 Y110.500 E180.50858
G1 X126.288 Y120.249 E180.83286
G1 X92.323 Y119.716 E181.96268
G1 X92.766 Y91.421 E182.90392
G1 X126.731 Y91.953 E184.03374
G1 X126.579 Y101.702 E184.35804
G1 X127.878 Y101.722 E184.40128
G0 F3000 E183.40128
G0 X128.502 Y102.089 F7200
G0 X127.179 Y101.311
G0 X126.985 Y101.308
G0 X126.986 Y101.199
G0 X119.931 Y97.054
G0 F3000 E184.40128
;segType:HShell
G1 X118.238 Y98.747 E184.48090 F3600
G0 X118.247 Y98.172 F7200
G1 X119.659 Y96.761 E184.54728 F3600
G0 X119.455 Y96.399 F7200
G1 X118.256 Y97.598 E184.60366 F3600
G0 X118.265 Y97.023 F7200
G1 X119.288 Y96.001 E184.65174 F3600
G0 X119.251 Y95.472 F7200
G1 X118.274 Y96.448 E184.69770 F3600
G0 X118.283 Y95.874 F7200
G1 X119.390 Y94.767 E184.74972 F3600
G0 X120.038 Y94.529 F7200
;segType:Perimeter
G1 X120.807 Y94.306 E184.77634 F1800
G1 X121.181 Y94.198 E184.78928
G1 X121.629 Y94.224 E184.80422
G1 X122.043 Y94.398 E184.81916
G1 X122.375 Y94.700 E184.83410
G1 X122.588 Y95.096 E184.84902
G1 X122.656 Y95.531 E184.86368
G1 X122.631 Y95.772 E184.87172
G1 X122.478 Y96.184 E184.88636
G1 X122.190 Y96.529 E184.90130
G1 X121.805 Y96.759 E184.91622
G1 X121.364 Y96.846 E184.93116
G1 X120.920 Y96.782 E184.94610
G1 X120.522 Y96.574 E184.96102
G1 X120.216 Y96.245 E184.97596
G1 X120.038 Y95.833 E184.99090
G1 X120.007 Y95.385 E185.00582
G1 X120.127 Y94.952 E185.02076
G1 X120.384 Y94.585 E185.03568
G1 X120.700 Y94.358 E185.04862
G0 X120.807 Y94.306 F7200
G0 X121.181 Y94.198
G0 X121.629 Y94.224
G0 X122.043 Y94.398
G0 X122.274 Y94.609
G0 X121.970 Y93.934
;segType:Loop
G1 X122.261 Y94.056 E185.05912 F3600
G1 X122.695 Y94.450 E185.07862
G1 X122.973 Y94.967 E185.09812
G1 X123.059 Y95.520 E185.11674
G1 X123.024 Y95.863 E185.12818
G1 X122.829 Y96.388 E185.14680
G1 X122.454 Y96.838 E185.16630
G1 X121.950 Y97.137 E185.18580
G1 X121.375 Y97.252 E185.20530
G1 X120.795 Y97.168 E185.22480
G1 X120.276 Y96.896 E185.24428
G1 X119.877 Y96.467 E185.26378
G1 X119.644 Y95.929 E185.28328
G1 X119.603 Y95.344 E185.30276
G1 X119.760 Y94.779 E185.32226
G1 X120.096 Y94.299 E185.34176
G1 X120.572 Y93.958 E185.36126
G1 X121.135 Y93.795 E185.38076
G1 X121.721 Y93.829 E185.40026
G1 X121.786 Y93.856 E185.40260
G0 F3000 E184.40260
G0 X117.334 Y93.995 F7200
G0 F3000 E185.40260
;segType:HShell
G1 X119.134 Y92.194 E185.48732 F3600
G0 X119.691 Y92.203 F7200
G1 X117.890 Y94.004 E185.57204 F3600
G0 X118.310 Y94.149 F7200
G1 X120.248 Y92.211 E185.66320 F3600
G0 X120.805 Y92.220 F7200
G1 X118.301 Y94.724 E185.78098 F3600
G0 X117.540 Y94.818 F7200
;segType:Perimeter
G1 X117.268 Y112.157 E186.35772 F1800
G1 X103.869 Y111.947 E186.80344
G1 X104.141 Y94.548 E187.38218
G1 X117.481 Y94.758 E187.82592
G0 X117.540 Y94.818 F7200
G0 X117.515 Y96.418
G0 X117.923 Y95.865
;segType:Loop
G1 X117.661 Y112.563 E188.38138 F3600
G1 X103.462 Y112.341 E188.85370
G1 X103.748 Y94.142 E189.45906
G1 X117.947 Y94.365 E189.93138
G1 X117.926 Y95.665 E189.97462
G0 F3000 E188.97462
G0 X118.031 Y111.965 F7200
G0 F3000 E189.97462
;segType:HShell
G1 X120.155 Y109.841 E190.07454 F3600
G0 X119.804 Y109.627 F7200
G1 X118.040 Y111.391 E190.15750 F3600
G0 X118.049 Y110.816 F7200
G1 X119.531 Y109.333 E190.22724 F3600
G0 X119.302 Y108.997 F7200
G1 X118.058 Y110.241 E190.28576 F3600
G0 X118.067 Y109.666 F7200
G1 X119.131 Y108.602 E190.33580 F3600
G0 X119.838 Y108.272 F7200
;segType:Perimeter
G1 X119.811 Y107.884 E190.34874 F1800
G1 X119.931 Y107.451 E190.36368
G1 X120.188 Y107.083 E190.37860
G1 X120.553 Y106.822 E190.39354
G1 X120.985 Y106.697 E190.40848
G1 X121.433 Y106.723 E190.42342
G1 X121.847 Y106.897 E190.43836
G1 X122.179 Y107.199 E190.45330
G1 X122.392 Y107.594 E190.46824
G1 X122.460 Y108.029 E190.48288
G1 X122.435 Y108.270 E190.49092
G1 X122.282 Y108.683 E190.50556
G1 X121.995 Y109.028 E190.52050
G1 X121.609 Y109.257 E190.53542
G1 X121.168 Y109.345 E190.55036
G1 X120.724 Y109.281 E190.56530
G1 X120.326 Y109.072 E190.58022
G1 X120.021 Y108.743 E190.59516
G1 X119.866 Y108.387 E190.60808
G0 X119.838 Y108.272 F7200
G0 X119.811 Y107.884
G0 X119.931 Y107.451
G0 X120.188 Y107.083
G0 X120.443 Y106.901
G0 X119.719 Y107.056
;segType:Loop
G1 X119.900 Y106.798 E190.61858 F3600
G1 X120.376 Y106.456 E190.63808
G1 X120.939 Y106.294 E190.65758
G1 X121.525 Y106.328 E190.67708
G1 X122.065 Y106.555 E190.69658
G1 X122.499 Y106.949 E190.71608
G1 X122.777 Y107.465 E190.73558
G1 X122.863 Y108.019 E190.75422
G1 X122.828 Y108.361 E190.76568
G1 X122.633 Y108.886 E190.78428
G1 X122.258 Y109.337 E190.80378
G1 X121.754 Y109.636 E190.82328
G1 X121.179 Y109.751 E190.84278
G1 X120.599 Y109.667 E190.86228
G1 X120.080 Y109.395 E190.88176
G1 X119.681 Y108.965 E190.90126
G1 X119.448 Y108.428 E190.92074
G1 X119.407 Y107.843 E190.94024
G1 X119.564 Y107.278 E190.95974
G1 X119.604 Y107.220 E190.96208
G0 F3000 E189.96208
G0 X120.026 Y107.314 F7200
G0 X117.353 Y106.717
G0 X117.268 Y112.157
G0 X103.869 Y111.947
G0 X103.997 Y103.733
G0 X103.240 Y103.563
G0 F3000 E190.96208
;segType:HShell
G1 X100.998 Y105.805 E191.06756 F3600
G0 X100.596 Y105.642 F7200
G1 X103.249 Y102.989 E191.19236 F3600
G0 X103.258 Y102.414 F7200
G1 X100.061 Y105.611 E191.34272 F3600
G0 X100.047 Y106.371 F7200
;segType:Perimeter
G1 X100.435 Y106.394 E191.35564 F1800
G1 X100.849 Y106.568 E191.37058
G1 X101.182 Y106.870 E191.38550
G1 X101.395 Y107.265 E191.40042
G1 X101.462 Y107.700 E191.41506
G1 X101.438 Y107.941 E191.42312
G1 X101.285 Y108.354 E191.43778
G1 X100.997 Y108.699 E191.45272
G1 X100.611 Y108.928 E191.46766
G1 X100.171 Y109.016 E191.48258
G1 X99.727 Y108.951 E191.49752
G1 X99.329 Y108.743 E191.51246
G1 X99.023 Y108.414 E191.52738
G1 X98.845 Y108.002 E191.54232
G1 X98.814 Y107.555 E191.55726
G1 X98.934 Y107.122 E191.57218
G1 X99.191 Y106.754 E191.58712
G1 X99.556 Y106.492 E191.60206
G1 X99.930 Y106.384 E191.61500
G0 X100.047 Y106.371 F7200
G0 X100.435 Y106.394
G0 X100.849 Y106.568
G0 X101.182 Y106.870
G0 X101.330 Y107.145
G0 X101.268 Y106.408
;segType:Loop
G1 X101.501 Y106.620 E191.62548 F3600
G1 X101.779 Y107.136 E191.64496
G1 X101.865 Y107.689 E191.66358
G1 X101.831 Y108.032 E191.67504
G1 X101.636 Y108.557 E191.69368
G1 X101.261 Y109.007 E191.71318
G1 X100.756 Y109.307 E191.73268
G1 X100.182 Y109.421 E191.75218
G1 X99.602 Y109.338 E191.77166
G1 X99.082 Y109.066 E191.79116
G1 X98.683 Y108.636 E191.81066
G1 X98.450 Y108.098 E191.83016
G1 X98.410 Y107.514 E191.84964
G1 X98.566 Y106.949 E191.86914
G1 X98.902 Y106.468 E191.88862
G1 X99.379 Y106.127 E191.90812
G1 X99.942 Y105.964 E191.92762
G1 X100.527 Y105.998 E191.94712
G1 X101.068 Y106.225 E191.96662
G1 X101.120 Y106.273 E191.96896
G0 F3000 E190.96896
G0 X102.046 Y94.009 F7200
G0 F3000 E191.96896
;segType:HShell
G1 X104.097 Y91.958 E192.06542 F3600
G0 X103.540 Y91.950 F7200
G1 X101.780 Y93.709 E192.14820 F3600
G0 X101.483 Y93.440 F7200
G1 X102.983 Y91.941 E192.21872 F3600
G0 X102.426 Y91.932 F7200
G1 X101.093 Y93.265 E192.28140 F3600
G0 X100.657 Y93.135 F7200
G1 X101.869 Y91.923 E192.33840 F3600
G0 X101.312 Y91.915 F7200
G1 X100.122 Y93.104 E192.39436 F3600
G0 X100.243 Y93.873 F7200
;segType:Perimeter
G1 X100.632 Y93.895 E192.40730 F1800
G1 X101.045 Y94.069 E192.42224
G1 X101.378 Y94.371 E192.43718
G1 X101.590 Y94.766 E192.45210
G1 X101.658 Y95.201 E192.46674
G1 X101.634 Y95.442 E192.47480
G1 X101.480 Y95.855 E192.48944
G1 X101.193 Y96.200 E192.50438
G1 X100.807 Y96.429 E192.51932
G1 X100.367 Y96.517 E192.53426
G1 X99.922 Y96.453 E192.54920
G1 X99.525 Y96.245 E192.56414
G1 X99.219 Y95.916 E192.57908
G1 X99.041 Y95.504 E192.59400
G1 X99.010 Y95.056 E192.60894
G1 X99.129 Y94.623 E192.62388
G1 X99.387 Y94.255 E192.63880
G1 X99.752 Y93.994 E192.65374
G1 X100.126 Y93.886 E192.66668
G0 X100.243 Y93.873 F7200
G0 X100.632 Y93.895
G0 X101.045 Y94.069
G0 X101.378 Y94.371
G0 X101.526 Y94.647
G0 X101.464 Y93.909
;segType:Loop
G1 X101.698 Y94.121 E192.67718 F3600
G1 X101.975 Y94.637 E192.69668
G1 X102.061 Y95.190 E192.71528
G1 X102.027 Y95.533 E192.72674
G1 X101.832 Y96.059 E192.74538
G1 X101.457 Y96.509 E192.76488
G1 X100.952 Y96.808 E192.78438
G1 X100.378 Y96.923 E192.80388
G1 X99.798 Y96.839 E192.82338
G1 X99.278 Y96.567 E192.84288
G1 X98.879 Y96.138 E192.86238
G1 X98.646 Y95.600 E192.88186
G1 X98.606 Y95.015 E192.90136
G1 X98.762 Y94.450 E192.92086
G1 X99.098 Y93.970 E192.94036
G1 X99.575 Y93.629 E192.95986
G1 X100.138 Y93.466 E192.97934
G1 X100.723 Y93.500 E192.99884
G1 X101.264 Y93.727 E193.01834
G1 X101.316 Y93.775 E193.02070
G0 X103.366 Y95.518 F7200
;segType:HShell
G1 X92.898 Y105.985 E193.51306 F3600
G0 X92.889 Y106.560 F7200
G1 X103.357 Y96.092 E194.00544 F3600
G0 X103.348 Y96.667 F7200
G1 X92.880 Y107.135 E194.49780 F3600
G0 X92.871 Y107.710 F7200
G1 X103.339 Y97.242 E194.99018 F3600
G0 X103.330 Y97.816 F7200
G1 X92.862 Y108.284 E195.48254 F3600
G0 X92.853 Y108.859 F7200
G1 X103.321 Y98.391 E195.97492 F3600
G0 X103.312 Y98.966 F7200
G1 X92.844 Y109.434 E196.46728 F3600
G0 X92.835 Y110.008 F7200
G1 X103.303 Y99.540 E196.95966 F3600
G0 X103.294 Y100.115 F7200
G1 X92.826 Y110.583 E197.45202 F3600
G0 X92.817 Y111.158 F7200
G1 X103.285 Y100.690 E197.94440 F3600
G0 X103.276 Y101.264 F7200
G1 X92.808 Y111.732 E198.43678 F3600
G0 X92.799 Y112.307 F7200
G1 X98.206 Y106.900 E198.69114 F3600
G0 X98.056 Y107.616 F7200
G1 X92.790 Y112.882 E198.93884 F3600
G0 X92.781 Y113.456 F7200
G1 X98.093 Y108.145 E199.18870 F3600
G0 X98.253 Y108.549 F7200
G1 X92.772 Y114.031 E199.44654 F3600
G0 X92.763 Y114.606 F7200
G1 X98.452 Y108.916 E199.71414 F3600
G0 X98.725 Y109.210 F7200
G1 X92.754 Y115.181 E199.99500 F3600
G0 X92.745 Y115.755 F7200
G1 X99.047 Y109.453 E200.29142 F3600
G0 X99.418 Y109.648 F7200
G1 X92.736 Y116.330 E200.60572 F3600
G0 X92.727 Y116.905 F7200
G1 X99.888 Y109.743 E200.94258 F3600
G0 X100.465 Y109.732 F7200
G1 X92.718 Y117.479 E201.30700 F3600
G0 X92.709 Y118.054 F7200
G1 X101.447 Y109.315 E201.71804 F3600
G0 X101.599 Y109.163 F7200
G1 X103.177 Y107.586 E201.79222 F3600
G0 X103.186 Y107.011 F7200
G1 X102.196 Y108.001 E201.83880 F3600
G0 X102.191 Y107.440 F7200
G1 X103.195 Y106.437 E201.88600 F3600
G0 X103.204 Y105.862 F7200
G1 X102.098 Y106.968 E201.93802 F3600
G0 X101.900 Y106.600 F7200
G1 X103.213 Y105.287 E201.99978 F3600
G0 X103.222 Y104.713 F7200
G1 X101.658 Y106.276 E202.07330 F3600
G0 X101.362 Y106.006 F7200
G1 X103.231 Y104.138 E202.16120 F3600
G0 X103.168 Y108.161 F7200
G1 X92.700 Y118.629 E202.65356 F3600
G0 X92.691 Y119.203 F7200
G1 X103.159 Y108.735 E203.14594 F3600
G0 X103.150 Y109.310 F7200
G1 X93.092 Y119.368 E203.61904 F3600
G0 X93.649 Y119.377 F7200
G1 X103.141 Y109.885 E204.06552 F3600
G0 X103.132 Y110.460 F7200
G1 X94.206 Y119.386 E204.48538 F3600
G0 X94.762 Y119.394 F7200
G1 X103.123 Y111.034 E204.87862 F3600
G0 X103.114 Y111.609 F7200
G1 X95.319 Y119.403 E205.24524 F3600
G0 X95.876 Y119.412 F7200
G1 X103.105 Y112.184 E205.58524 F3600
G0 X103.158 Y112.696 F7200
G1 X96.433 Y119.421 E205.90154 F3600
G0 X96.990 Y119.429 F7200
G1 X103.715 Y112.705 E206.21784 F3600
G0 X104.272 Y112.714 F7200
G1 X97.547 Y119.438 E206.53414 F3600
G0 X98.104 Y119.447 F7200
G1 X104.829 Y112.722 E206.85044 F3600
G0 X105.386 Y112.731 F7200
G1 X98.661 Y119.456 E207.16674 F3600
G0 X99.218 Y119.464 F7200
G1 X105.943 Y112.740 E207.48304 F3600
G0 X106.499 Y112.749 F7200
G1 X99.775 Y119.473 E207.79934 F3600
G0 X100.332 Y119.482 F7200
G1 X107.056 Y112.757 E208.11564 F3600
G0 X107.613 Y112.766 F7200
G1 X100.889 Y119.490 E208.43194 F3600
G0 X101.446 Y119.499 F7200
G1 X108.170 Y112.775 E208.74822 F3600
G0 X108.727 Y112.783 F7200
G1 X102.003 Y119.508 E209.06452 F3600
G0 X102.560 Y119.517 F7200
G1 X109.284 Y112.792 E209.38082 F3600
G0 X109.841 Y112.801 F7200
G1 X103.117 Y119.525 E209.69712 F3600
G0 X103.674 Y119.534 F7200
G1 X110.398 Y112.810 E210.01342 F3600
G0 X110.955 Y112.818 F7200
G1 X104.231 Y119.543 E210.32972 F3600
G0 X104.788 Y119.552 F7200
G1 X111.512 Y112.827 E210.64602 F3600
G0 X112.069 Y112.836 F7200
G1 X105.345 Y119.560 E210.96232 F3600
G0 X105.902 Y119.569 F7200
G1 X112.626 Y112.845 E211.27862 F3600
G0 X113.183 Y112.853 F7200
G1 X106.458 Y119.578 E211.59492 F3600
G0 X107.015 Y119.587 F7200
G1 X113.740 Y112.862 E211.91122 F3600
G0 X114.297 Y112.871 F7200
G1 X107.572 Y119.595 E212.22752 F3600
G0 X108.129 Y119.604 F7200
G1 X114.854 Y112.879 E212.54382 F3600
G0 X115.411 Y112.888 F7200
G1 X108.686 Y119.613 E212.86012 F3600
G0 X109.243 Y119.621 F7200
G1 X115.968 Y112.897 E213.17642 F3600
G0 X116.525 Y112.906 F7200
G1 X109.800 Y119.630 E213.49272 F3600
G0 X110.357 Y119.639 F7200
G1 X117.082 Y112.914 E213.80902 F3600
G0 X117.639 Y112.923 F7200
G1 X110.914 Y119.648 E214.12532 F3600
G0 X111.471 Y119.656 F7200
G1 X121.034 Y110.093 E214.57514 F3600
G0 X121.674 Y110.019 F7200
G1 X112.028 Y119.665 E215.02886 F3600
G0 X118.022 Y112.540 F7200
G1 X120.540 Y110.022 E215.14730 F3600
G0 X119.139 Y107.463 F7200
G1 X118.085 Y108.517 E215.19686 F3600
G0 X118.076 Y109.092 F7200
G1 X119.064 Y108.103 E215.24336 F3600
G0 X125.942 Y119.328 F7200
G1 X125.395 Y119.875 E215.26908 F3600
G0 X124.838 Y119.866 F7200
G1 X125.951 Y118.753 E215.32144 F3600
G0 X125.960 Y118.178 F7200
G1 X124.281 Y119.857 E215.40040 F3600
G0 X123.724 Y119.848 F7200
G1 X125.969 Y117.604 E215.50600 F3600
G0 X125.978 Y117.029 F7200
G1 X123.167 Y119.840 E215.63822 F3600
G0 X122.610 Y119.831 F7200
G1 X125.987 Y116.454 E215.79704 F3600
G0 X125.996 Y115.880 F7200
G1 X122.053 Y119.822 E215.98250 F3600
G0 X121.496 Y119.814 F7200
G1 X126.005 Y115.305 E216.19456 F3600
G0 X126.014 Y114.730 F7200
G1 X120.939 Y119.805 E216.43326 F3600
G0 X120.382 Y119.796 F7200
G1 X126.023 Y114.156 E216.69858 F3600
G0 X126.032 Y113.581 F7200
G1 X119.825 Y119.787 E216.99050 F3600
G0 X119.268 Y119.779 F7200
G1 X126.041 Y113.006 E217.30906 F3600
G0 X126.050 Y112.432 F7200
G1 X118.711 Y119.770 E217.65424 F3600
G0 X118.155 Y119.761 F7200
G1 X126.059 Y111.857 E218.02604 F3600
G0 X126.068 Y111.282 F7200
G1 X117.598 Y119.752 E218.42446 F3600
G0 X117.041 Y119.744 F7200
G1 X126.077 Y110.707 E218.84948 F3600
G0 X127.623 Y109.727 F7200
G1 X127.198 Y110.152 E218.86944 F3600
G0 X126.641 Y110.143 F7200
G1 X127.632 Y109.153 E218.91604 F3600
G0 X127.641 Y108.578 F7200
G1 X116.484 Y119.735 E219.44082 F3600
G0 X115.927 Y119.726 F7200
G1 X127.650 Y108.003 E219.99224 F3600
G0 X127.659 Y107.429 F7200
G1 X115.370 Y119.718 E220.57026 F3600
G0 X114.813 Y119.709 F7200
G1 X127.668 Y106.854 E221.17492 F3600
G0 X127.677 Y106.279 F7200
G1 X114.256 Y119.700 E221.80620 F3600
G0 X113.699 Y119.691 F7200
G1 X127.686 Y105.705 E222.46410 F3600
G0 X127.695 Y105.130 F7200
G1 X113.142 Y119.683 E223.14860 F3600
G0 X112.585 Y119.674 F7200
G1 X127.704 Y104.555 E223.85974 F3600
G0 X127.713 Y103.980 F7200
G1 X123.141 Y108.552 E224.07476 F3600
G0 X123.211 Y107.916 F7200
G1 X127.722 Y103.406 E224.28692 F3600
G0 X127.731 Y102.831 F7200
G1 X123.135 Y107.426 E224.50306 F3600
G0 X122.957 Y107.039 F7200
G1 X127.740 Y102.256 E224.72804 F3600
G0 X127.356 Y102.074 F7200
G1 X122.745 Y106.686 E224.94494 F3600
G0 X122.448 Y106.416 F7200
G1 X126.799 Y102.066 E225.14960 F3600
G0 X126.242 Y102.057 F7200
G1 X122.114 Y106.185 E225.34376 F3600
G0 X121.716 Y106.017 F7200
G1 X126.221 Y101.512 E225.55566 F3600
G0 X121.692 Y97.556 F7200
G1 X118.202 Y101.046 E225.71982 F3600
G0 X118.211 Y100.471 F7200
G1 X121.105 Y97.577 E225.85596 F3600
G0 X120.629 Y97.488 F7200
G1 X118.220 Y99.896 E225.96926 F3600
G0 X118.229 Y99.322 F7200
G1 X120.258 Y97.293 E226.06466 F3600
G0 X126.248 Y99.788 F7200
G1 X118.094 Y107.942 E226.44822 F3600
G0 X118.103 Y107.368 F7200
G1 X126.257 Y99.213 E226.83178 F3600
G0 X126.266 Y98.639 F7200
G1 X118.112 Y106.793 E227.21534 F3600
G0 X118.121 Y106.218 F7200
G1 X126.275 Y98.064 E227.59888 F3600
G0 X126.284 Y97.489 F7200
G1 X118.130 Y105.643 E227.98242 F3600
G0 X118.139 Y105.069 F7200
G1 X126.293 Y96.915 E228.36596 F3600
G0 X126.302 Y96.340 F7200
G1 X118.148 Y104.494 E228.74952 F3600
G0 X118.157 Y103.919 F7200
G1 X126.311 Y95.765 E229.13306 F3600
G0 X126.320 Y95.191 F7200
G1 X118.166 Y103.345 E229.51660 F3600
G0 X118.175 Y102.770 F7200
G1 X126.329 Y94.616 E229.90014 F3600
G0 X126.338 Y94.041 F7200
G1 X118.184 Y102.195 E230.28370 F3600
G0 X118.193 Y101.621 F7200
G1 X126.347 Y93.467 E230.66724 F3600
G0 X126.356 Y92.892 F7200
G1 X123.386 Y95.862 E230.80694 F3600
G0 X123.388 Y95.294 F7200
G1 X126.365 Y92.317 E230.94700 F3600
G0 X125.818 Y92.299 F7200
G1 X123.301 Y94.816 E231.06540 F3600
G0 X123.103 Y94.448 F7200
G1 X125.261 Y92.290 E231.16692 F3600
G0 X124.704 Y92.281 F7200
G1 X122.866 Y94.119 E231.25338 F3600
G0 X122.570 Y93.850 F7200
G1 X124.147 Y92.273 E231.32758 F3600
G0 X123.590 Y92.264 F7200
G1 X122.210 Y93.644 E231.39250 F3600
G0 X121.812 Y93.477 F7200
G1 X123.033 Y92.255 E231.44996 F3600
G0 X122.476 Y92.246 F7200
G1 X121.280 Y93.443 E231.50624 F3600
G0 X120.575 Y93.582 F7200
G1 X121.919 Y92.238 E231.56948 F3600
G0 X121.362 Y92.229 F7200
G1 X118.292 Y95.299 E231.71388 F3600
G0 X116.777 Y93.986 F7200
G1 X118.578 Y92.185 E231.79860 F3600
G0 X118.021 Y92.177 F7200
G1 X116.220 Y93.977 E231.88332 F3600
G0 X115.663 Y93.969 F7200
G1 X117.464 Y92.168 E231.96804 F3600
G0 X116.907 Y92.159 F7200
G1 X115.106 Y93.960 E232.05274 F3600
G0 X114.549 Y93.951 F7200
G1 X116.350 Y92.150 E232.13746 F3600
G0 X115.793 Y92.142 F7200
G1 X113.992 Y93.943 E232.22218 F3600
G0 X113.435 Y93.934 F7200
G1 X115.236 Y92.133 E232.30690 F3600
G0 X114.679 Y92.124 F7200
G1 X112.878 Y93.925 E232.39162 F3600
G0 X112.321 Y93.916 F7200
G1 X114.122 Y92.115 E232.47634 F3600
G0 X113.565 Y92.107 F7200
G1 X111.764 Y93.908 E232.56106 F3600
G0 X111.207 Y93.899 F7200
G1 X113.008 Y92.098 E232.64576 F3600
G0 X112.451 Y92.089 F7200
G1 X110.650 Y93.890 E232.73048 F3600
G0 X110.093 Y93.881 F7200
G1 X111.894 Y92.081 E232.81520 F3600
G0 X111.337 Y92.072 F7200
G1 X109.536 Y93.873 E232.89992 F3600
G0 X108.979 Y93.864 F7200
G1 X110.780 Y92.063 E232.98464 F3600
G0 X110.223 Y92.054 F7200
G1 X108.422 Y93.855 E233.06936 F3600
G0 X107.865 Y93.847 F7200
G1 X109.666 Y92.046 E233.15406 F3600
G0 X109.109 Y92.037 F7200
G1 X107.308 Y93.838 E233.23878 F3600
G0 X106.751 Y93.829 F7200
G1 X108.552 Y92.028 E233.32350 F3600
G0 X107.995 Y92.019 F7200
G1 X106.194 Y93.820 E233.40822 F3600
G0 X105.637 Y93.812 F7200
G1 X107.438 Y92.011 E233.49294 F3600
G0 X106.881 Y92.002 F7200
G1 X105.080 Y93.803 E233.57766 F3600
G0 X104.523 Y93.794 F7200
G1 X106.324 Y91.993 E233.66236 F3600
G0 X105.767 Y91.985 F7200
G1 X103.967 Y93.785 E233.74708 F3600
G0 X103.410 Y93.777 F7200
G1 X105.211 Y91.976 E233.83180 F3600
G0 X104.654 Y91.967 F7200
G1 X102.244 Y94.377 E233.94514 F3600
G0 X103.393 Y93.794 F7200
G1 X102.368 Y94.819 E233.99336 F3600
G0 X102.408 Y95.344 F7200
G1 X103.384 Y94.368 E234.03930 F3600
G0 X103.375 Y94.943 F7200
G1 X102.190 Y96.128 E234.09502 F3600
G0 X103.267 Y101.839 F7200
G1 X99.343 Y105.763 E234.27958 F3600
G0 F3000 E233.27958
G0 X99.248 Y95.947 F7200
G0 X99.219 Y95.916
G0 X99.041 Y95.504
G0 X99.010 Y95.056
G0 X99.129 Y94.623
G0 X99.234 Y94.474
G0 X99.223 Y93.437
G0 F3000 E234.27958
G1 X100.755 Y91.906 E234.35160 F3600
G0 X93.514 Y91.793 F7200
G1 X93.114 Y92.193 E234.37044 F3600
G0 X93.105 Y92.768 F7200
G1 X94.071 Y91.801 E234.41590 F3600
G0 X94.628 Y91.810 F7200
G1 X93.096 Y93.342 E234.48796 F3600
G0 X93.087 Y93.917 F7200
G1 X95.185 Y91.819 E234.58666 F3600
G0 X95.742 Y91.827 F7200
G1 X93.078 Y94.492 E234.71198 F3600
G0 X93.069 Y95.066 F7200
G1 X96.299 Y91.836 E234.86390 F3600
G0 X96.856 Y91.845 F7200
G1 X93.060 Y95.641 E235.04246 F3600
G0 X93.051 Y96.216 F7200
G1 X97.413 Y91.854 E235.24766 F3600
G0 X97.970 Y91.862 F7200
G1 X93.042 Y96.790 E235.47944 F3600
G0 X93.033 Y97.365 F7200
G1 X98.527 Y91.871 E235.73786 F3600
G0 X99.084 Y91.880 F7200
G1 X93.024 Y97.940 E236.02292 F3600
G0 X93.015 Y98.514 F7200
G1 X99.641 Y91.889 E236.33458 F3600
G0 X100.198 Y91.897 F7200
G1 X93.006 Y99.089 E236.67286 F3600
G0 X92.997 Y99.664 F7200
G1 X98.584 Y94.077 E236.93566 F3600
G0 X98.243 Y94.984 F7200
G1 X92.988 Y100.239 E237.18282 F3600
G0 X92.979 Y100.813 F7200
G1 X98.279 Y95.513 E237.43212 F3600
G0 X98.406 Y95.952 F7200
G1 X92.970 Y101.388 E237.68784 F3600
G0 X92.961 Y101.963 F7200
G1 X98.580 Y96.344 E237.95212 F3600
G0 X98.852 Y96.637 F7200
G1 X92.952 Y102.537 E238.22962 F3600
G0 X92.943 Y103.112 F7200
G1 X99.149 Y96.906 E238.52154 F3600
G0 X99.520 Y97.100 F7200
G1 X92.934 Y103.687 E238.83134 F3600
G0 X92.925 Y104.261 F7200
G1 X99.960 Y97.226 E239.16224 F3600
G0 X100.483 Y97.269 F7200
G1 X92.916 Y104.836 E239.51818 F3600
G0 X92.907 Y105.411 F7200
G1 X101.293 Y97.025 E239.91262 F3600
; ------------------------------------
; Layer #2
; ------------------------------------
G92 E0 ;reset extr
G0 F3000 E-1.00000
G0 F600 Z0.600
G0 X127.194 Y91.560 F7200
G0 X127.348 Y84.470
G0 X127.842 Y61.756
G0 X127.750 Y61.529
G0 X127.666 Y61.139
G0 X127.650 Y60.741
G0 X127.700 Y60.345
G0 X127.817 Y59.963
G0 X127.884 Y59.831
G0 X127.899 Y59.134
G0 F3000 E0.00000
;segType:HShell
G1 X116.211 Y47.445 E0.54978 F3600
G0 X115.717 Y47.044 F7200
;segType:Perimeter
G1 X115.510 Y46.271 E0.57639 F1800
G1 X144.550 Y46.271 E1.54224
G1 X144.550 Y84.870 E2.82605
G1 X115.450 Y84.870 E3.79390
G1 X115.450 Y46.331 E5.07571
G0 X115.510 Y46.271 F7200
G0 X117.110 Y46.271
G0 X116.550 Y46.671
;segType:Loop
G1 X144.150 Y46.671 E5.99367 F3600
G1 X144.150 Y84.470 E7.25087
G1 X115.850 Y84.470 E8.19210
G1 X115.850 Y46.671 E9.44931
G1 X116.350 Y46.671 E9.46594
G0 F3000 E8.46594
G0 X116.350 Y46.671 F7200
G0 X127.901 Y59.797
G0 X127.817 Y59.963
G0 X127.700 Y60.345
G0 X127.650 Y60.741
G0 X127.666 Y61.139
G0 X127.750 Y61.529
G0 X127.900 Y61.900
G0 X128.108 Y62.239
G0 X128.372 Y62.539
G0 X128.683 Y62.790
G0 X129.031 Y62.984
G0 X129.407 Y63.117
G0 X129.801 Y63.184
G0 X130.199 Y63.184
G0 X130.593 Y63.117
G0 X130.768 Y63.055
G0 X144.150 Y78.262
G0 X143.789 Y77.853
G0 F3000 E9.46594
;segType:HShell
G1 X129.422 Y63.485 E10.14174 F3600
G0 X129.031 Y62.984 F7200
G0 X129.082 Y62.850
;segType:Perimeter
G1 X128.610 Y62.204 E10.16835 F1800
G1 X128.431 Y62.000 E10.17736
G1 X128.258 Y61.719 E10.18836
G1 X128.134 Y61.412 E10.19938
G1 X128.065 Y61.088 E10.21038
G1 X128.051 Y60.758 E10.22138
G1 X128.093 Y60.429 E10.23239
G1 X128.189 Y60.113 E10.24340
G1 X128.339 Y59.817 E10.25441
G1 X128.535 Y59.551 E10.26541
G1 X128.774 Y59.322 E10.27643
G1 X129.048 Y59.137 E10.28743
G1 X129.350 Y59.001 E10.29843
G1 X129.670 Y58.917 E10.30944
G1 X130.000 Y58.889 E10.32045
G1 X130.330 Y58.917 E10.33146
G1 X130.650 Y59.001 E10.34246
G1 X130.952 Y59.137 E10.35347
G1 X131.226 Y59.322 E10.36447
G1 X131.465 Y59.551 E10.37549
G1 X131.661 Y59.817 E10.38649
G1 X131.810 Y60.113 E10.39750
G1 X131.907 Y60.429 E10.40850
G1 X131.949 Y60.758 E10.41951
G1 X131.935 Y61.088 E10.43051
G1 X131.866 Y61.412 E10.44152
G1 X131.742 Y61.719 E10.45254
G1 X131.569 Y62.000 E10.46354
G1 X131.350 Y62.249 E10.47455
G1 X131.093 Y62.457 E10.48556
G1 X130.804 Y62.618 E10.49656
G1 X130.492 Y62.729 E10.50757
G1 X130.165 Y62.784 E10.51858
G1 X129.835 Y62.784 E10.52958
G1 X129.508 Y62.729 E10.54059
G1 X129.196 Y62.618 E10.55160
G1 X128.907 Y62.457 E10.56260
G1 X128.697 Y62.287 E10.57161
G0 X128.610 Y62.204 F7200
G0 X128.431 Y62.000
G0 X128.258 Y61.719
G0 X128.134 Y61.412
G0 X128.065 Y61.088
G0 X128.051 Y60.758
G0 X128.051 Y60.752
G0 X127.650 Y60.741
G0 X127.666 Y61.139
G0 X127.729 Y61.431
;segType:Loop
G1 X127.666 Y61.139 E10.58156 F3600
G1 X127.650 Y60.741 E10.59482
G1 X127.700 Y60.345 E10.60809
G1 X127.817 Y59.963 E10.62138
G1 X127.997 Y59.607 E10.63465
G1 X128.234 Y59.286 E10.64791
G1 X128.522 Y59.010 E10.66119
G1 X128.853 Y58.787 E10.67446
G1 X129.216 Y58.622 E10.68772
G1 X129.602 Y58.522 E10.70100
G1 X130.000 Y58.488 E10.71428
G1 X130.398 Y58.522 E10.72755
G1 X130.784 Y58.622 E10.74082
G1 X131.147 Y58.787 E10.75408
G1 X131.478 Y59.010 E10.76735
G1 X131.766 Y59.286 E10.78064
G1 X132.003 Y59.607 E10.79390
G1 X132.183 Y59.963 E10.80718
G1 X132.300 Y60.345 E10.82045
G1 X132.350 Y60.741 E10.83372
G1 X132.334 Y61.139 E10.84698
G1 X132.250 Y61.529 E10.86025
G1 X132.101 Y61.900 E10.87354
G1 X131.892 Y62.239 E10.88679
G1 X131.628 Y62.539 E10.90007
G1 X131.317 Y62.790 E10.91335
G1 X130.969 Y62.984 E10.92662
G1 X130.593 Y63.117 E10.93989
G1 X130.199 Y63.184 E10.95317
G1 X129.801 Y63.184 E10.96642
G1 X129.407 Y63.117 E10.97970
G1 X129.031 Y62.984 E10.99298
G1 X128.683 Y62.790 E11.00625
G1 X128.372 Y62.539 E11.01952
G1 X128.108 Y62.239 E11.03280
G1 X127.900 Y61.900 E11.04606
G0 X127.665 Y59.465 F7200
;segType:HShell
G1 X116.211 Y48.011 E11.58483 F3600
G0 X116.211 Y48.577 F7200
G1 X127.477 Y59.843 E12.11478 F3600
G0 X127.346 Y60.277 F7200
G1 X116.211 Y49.142 E12.63854 F3600
G0 X116.211 Y49.708 F7200
G1 X127.291 Y60.789 E13.15974 F3600
G0 X127.359 Y61.422 F7200
G1 X116.211 Y50.274 E13.68413 F3600
G0 X116.211 Y50.839 F7200
G1 X127.806 Y62.435 E14.22955 F3600
G0 X128.376 Y63.005 F7200
G1 X143.789 Y78.418 E14.95454 F3600
G0 X143.789 Y78.984 F7200
G1 X116.211 Y51.405 E16.25177 F3600
G0 X116.211 Y51.971 F7200
G1 X143.789 Y79.550 E17.54900 F3600
G0 X143.789 Y80.115 F7200
G1 X116.211 Y52.536 E18.84623 F3600
G0 X116.211 Y53.102 F7200
G1 X143.789 Y80.681 E20.14346 F3600
G0 X143.789 Y81.247 F7200
G1 X116.211 Y53.668 E21.44069 F3600
G0 X116.211 Y54.233 F7200
G1 X143.789 Y81.812 E22.73792 F3600
G0 X143.789 Y82.378 F7200
G1 X116.211 Y54.799 E24.03515 F3600
G0 X116.211 Y55.365 F7200
G1 X143.789 Y82.944 E25.33238 F3600
G0 X143.789 Y83.509 F7200
G1 X116.211 Y55.930 E26.62961 F3600
G0 X116.211 Y56.496 F7200
G1 X143.789 Y84.075 E27.92684 F3600
G0 X143.259 Y84.110 F7200
G1 X116.211 Y57.062 E29.19910 F3600
G0 X116.211 Y57.628 F7200
G1 X142.693 Y84.110 E30.44475 F3600
G0 X142.127 Y84.110 F7200
G1 X116.211 Y58.193 E31.66380 F3600
G0 X116.211 Y58.759 F7200
G1 X141.562 Y84.110 E32.85624 F3600
G0 X140.996 Y84.110 F7200
G1 X116.211 Y59.325 E34.02207 F3600
G0 X116.211 Y59.890 F7200
G1 X140.430 Y84.110 E35.16129 F3600
G0 X139.865 Y84.110 F7200
G1 X116.211 Y60.456 E36.27390 F3600
G0 X116.211 Y61.022 F7200
G1 X139.299 Y84.110 E37.35991 F3600
G0 X138.733 Y84.110 F7200
G1 X116.211 Y61.587 E38.41930 F3600
G0 X116.211 Y62.153 F7200
G1 X138.167 Y84.110 E39.45209 F3600
G0 X137.602 Y84.110 F7200
G1 X116.211 Y62.719 E40.45827 F3600
G0 X116.211 Y63.284 F7200
G1 X137.036 Y84.110 E41.43784 F3600
G0 X136.470 Y84.110 F7200
G1 X116.211 Y63.850 E42.39081 F3600
G0 X116.211 Y64.416 F7200
G1 X135.905 Y84.110 E43.31716 F3600
G0 X135.339 Y84.110 F7200
G1 X116.211 Y64.981 E44.21691 F3600
G0 X116.211 Y65.547 F7200
G1 X134.773 Y84.110 E45.09005 F3600
G0 X134.208 Y84.110 F7200
G1 X116.211 Y66.113 E45.93658 F3600
G0 X116.211 Y66.678 F7200
G1 X133.642 Y84.110 E46.75650 F3600
G0 X133.076 Y84.110 F7200
G1 X116.211 Y67.244 E47.54982 F3600
G0 X116.211 Y67.810 F7200
G1 X132.511 Y84.110 E48.31653 F3600
G0 X131.945 Y84.110 F7200
G1 X116.211 Y68.376 E49.05662 F3600
G0 X116.211 Y68.941 F7200
G1 X131.379 Y84.110 E49.77011 F3600
G0 X130.814 Y84.110 F7200
G1 X116.211 Y69.507 E50.45700 F3600
G0 X116.211 Y70.073 F7200
G1 X130.248 Y84.110 E51.11727 F3600
G0 X129.682 Y84.110 F7200
G1 X116.211 Y70.638 E51.75094 F3600
G0 X116.211 Y71.204 F7200
G1 X129.117 Y84.110 E52.35800 F3600
G0 X128.551 Y84.110 F7200
G1 X116.211 Y71.770 E52.93844 F3600
G0 X116.211 Y72.335 F7200
G1 X127.985 Y84.110 E53.49229 F3600
G0 X127.419 Y84.110 F7200
G1 X116.211 Y72.901 E54.01952 F3600
G0 X116.211 Y73.467 F7200
G1 X126.854 Y84.110 E54.52014 F3600
G0 X126.288 Y84.110 F7200
G1 X116.211 Y74.032 E54.99416 F3600
G0 X116.211 Y74.598 F7200
G1 X125.722 Y84.110 E55.44157 F3600
G0 X125.157 Y84.110 F7200
G1 X116.211 Y75.164 E55.86237 F3600
G0 X116.211 Y75.729 F7200
G1 X124.591 Y84.110 E56.25656 F3600
G0 X124.025 Y84.110 F7200
G1 X116.211 Y76.295 E56.62415 F3600
G0 X116.211 Y76.861 F7200
G1 X123.460 Y84.110 E56.96512 F3600
G0 X122.894 Y84.110 F7200
G1 X116.211 Y77.427 E57.27949 F3600
G0 X116.211 Y77.992 F7200
G1 X122.328 Y84.110 E57.56726 F3600
G0 X121.763 Y84.110 F7200
G1 X116.211 Y78.558 E57.82841 F3600
G0 X116.211 Y79.124 F7200
G1 X121.197 Y84.110 E58.06295 F3600
G0 X120.631 Y84.110 F7200
G1 X116.211 Y79.689 E58.27089 F3600
G0 X116.211 Y80.255 F7200
G1 X120.066 Y84.110 E58.45222 F3600
G0 X119.500 Y84.110 F7200
G1 X116.211 Y80.821 E58.60694 F3600
G0 X116.211 Y81.386 F7200
G1 X118.934 Y84.110 E58.73505 F3600
G0 X118.368 Y84.110 F7200
G1 X116.211 Y81.952 E58.83655 F3600
G0 X116.211 Y82.518 F7200
G1 X117.803 Y84.110 E58.91145 F3600
G0 X117.237 Y84.110 F7200
G1 X116.211 Y83.083 E58.95974 F3600
G0 X116.211 Y83.649 F7200
G1 X116.671 Y84.110 E58.98142 F3600
G0 F3000 E57.98142
G0 X143.789 Y77.287 F7200
G0 F3000 E58.98142
G1 X130.047 Y63.545 E59.62781 F3600
G0 X130.557 Y63.489 F7200
G1 X143.789 Y76.721 E60.25023 F3600
G0 X143.789 Y76.156 F7200
G1 X130.992 Y63.358 E60.85218 F3600
G0 X131.371 Y63.172 F7200
G1 X143.789 Y75.590 E61.43629 F3600
G0 X143.789 Y75.024 F7200
G1 X131.705 Y62.940 E62.00471 F3600
G0 X131.996 Y62.665 F7200
G1 X143.789 Y74.458 E62.55942 F3600
G0 X143.789 Y73.893 F7200
G1 X132.246 Y62.350 E63.10237 F3600
G0 X132.452 Y61.990 F7200
G1 X143.789 Y73.327 E63.63564 F3600
G0 X143.789 Y72.761 F7200
G1 X132.607 Y61.579 E64.16162 F3600
G0 X132.696 Y61.102 F7200
G1 X143.789 Y72.196 E64.68344 F3600
G0 X143.789 Y71.630 F7200
G1 X132.686 Y60.527 E65.20571 F3600
G0 X132.482 Y59.757 F7200
G1 X143.789 Y71.064 E65.73757 F3600
G0 X143.789 Y70.499 F7200
G1 X120.322 Y47.031 E66.84141 F3600
G0 X120.888 Y47.031 F7200
G1 X143.789 Y69.933 E67.91864 F3600
G0 X143.789 Y69.367 F7200
G1 X121.453 Y47.031 E68.96926 F3600
G0 X122.019 Y47.031 F7200
G1 X143.789 Y68.802 E69.99328 F3600
G0 X143.789 Y68.236 F7200
G1 X122.585 Y47.031 E70.99069 F3600
G0 X123.150 Y47.031 F7200
G1 X143.789 Y67.670 E71.96149 F3600
G0 X143.789 Y67.105 F7200
G1 X123.716 Y47.031 E72.90568 F3600
G0 X124.282 Y47.031 F7200
G1 X143.789 Y66.539 E73.82327 F3600
G0 X143.789 Y65.973 F7200
G1 X124.847 Y47.031 E74.71424 F3600
G0 X125.413 Y47.031 F7200
G1 X143.789 Y65.408 E75.57861 F3600
G0 X143.789 Y64.842 F7200
G1 X125.979 Y47.031 E76.41637 F3600
G0 X126.545 Y47.031 F7200
G1 X143.789 Y64.276 E77.22752 F3600
G0 X143.789 Y63.710 F7200
G1 X127.110 Y47.031 E78.01206 F3600
G0 X127.676 Y47.031 F7200
G1 X143.789 Y63.145 E78.77000 F3600
G0 X143.789 Y62.579 F7200
G1 X128.242 Y47.031 E79.50132 F3600
G0 X128.807 Y47.031 F7200
G1 X143.789 Y62.013 E80.20604 F3600
G0 X143.789 Y61.448 F7200
G1 X129.373 Y47.031 E80.88415 F3600
G0 X129.939 Y47.031 F7200
G1 X143.789 Y60.882 E81.53565 F3600
G0 X143.789 Y60.316 F7200
G1 X130.504 Y47.031 E82.16055 F3600
G0 X131.070 Y47.031 F7200
G1 X143.789 Y59.751 E82.75884 F3600
G0 X143.789 Y59.185 F7200
G1 X131.636 Y47.031 E83.33052 F3600
G0 X132.201 Y47.031 F7200
G1 X143.789 Y58.619 E83.87558 F3600
G0 X143.789 Y58.054 F7200
G1 X132.767 Y47.031 E84.39404 F3600
G0 X133.333 Y47.031 F7200
G1 X143.789 Y57.488 E84.88589 F3600
G0 X143.789 Y56.922 F7200
G1 X133.898 Y47.031 E85.35114 F3600
G0 X134.464 Y47.031 F7200
G1 X143.789 Y56.357 E85.78978 F3600
G0 X143.789 Y55.791 F7200
G1 X135.030 Y47.031 E86.20181 F3600
G0 X135.595 Y47.031 F7200
G1 X143.789 Y55.225 E86.58723 F3600
G0 X143.789 Y54.659 F7200
G1 X136.161 Y47.031 E86.94604 F3600
G0 X136.727 Y47.031 F7200
G1 X143.789 Y54.094 E87.27825 F3600
G0 X143.789 Y53.528 F7200
G1 X137.293 Y47.031 E87.58385 F3600
G0 X137.858 Y47.031 F7200
G1 X143.789 Y52.962 E87.86284 F3600
G0 X143.789 Y52.397 F7200
G1 X138.424 Y47.031 E88.11522 F3600
G0 X138.990 Y47.031 F7200
G1 X143.789 Y51.831 E88.34099 F3600
G0 X143.789 Y51.265 F7200
G1 X139.555 Y47.031 E88.54015 F3600
G0 X140.121 Y47.031 F7200
G1 X143.789 Y50.700 E88.71271 F3600
G0 X143.789 Y50.134 F7200
G1 X140.687 Y47.031 E88.85866 F3600
G0 X141.252 Y47.031 F7200
G1 X143.789 Y49.568 E88.97800 F3600
G0 X143.789 Y49.003 F7200
G1 X141.818 Y47.031 E89.07073 F3600
G0 X142.384 Y47.031 F7200
G1 X143.789 Y48.437 E89.13686 F3600
G0 X143.789 Y47.871 F7200
G1 X142.949 Y47.031 E89.17637 F3600
G0 X143.515 Y47.031 F7200
G1 X143.789 Y47.306 E89.18928 F3600
G0 F3000 E88.18928
G0 X144.150 Y47.309 F7200
G0 X115.850 Y47.026
G0 X116.362 Y47.031
G0 F3000 E89.18928
G1 X128.175 Y58.844 E89.74491 F3600
G0 X128.492 Y58.596 F7200
G1 X116.928 Y47.031 E90.28886 F3600
G0 X117.494 Y47.031 F7200
G1 X128.853 Y58.391 E90.82320 F3600
G0 X129.265 Y58.237 F7200
G1 X118.059 Y47.031 E91.35030 F3600
G0 X118.625 Y47.031 F7200
G1 X129.742 Y58.148 E91.87322 F3600
G0 X130.312 Y58.153 F7200
G1 X119.191 Y47.031 E92.39635 F3600
G0 X119.756 Y47.031 F7200
G1 X131.091 Y58.366 E92.92952 F3600
G0 F3000 E91.92952
G0 X130.772 Y58.619 F7200
G0 X130.398 Y58.522
G0 X130.000 Y58.488
G0 X129.602 Y58.522
G0 X129.216 Y58.622
G0 X128.853 Y58.787
G0 X128.522 Y59.010
G0 X128.234 Y59.286
G0 X127.997 Y59.607
G0 X127.817 Y59.963
G0 X127.700 Y60.345
G0 X127.650 Y60.741
G0 X127.664 Y61.089
G0 X115.850 Y70.474
G0 X108.078 Y76.648
G0 F3000 E92.92952
G1 X80.499 Y49.069 E94.22675 F3600
G0 X79.954 Y48.541 F7200
;segType:Perimeter
G1 X79.799 Y47.962 E94.24670 F1800
G1 X108.838 Y47.962 E95.21255
G1 X108.838 Y81.781 E96.33739
G1 X79.739 Y81.781 E97.30524
G1 X79.739 Y48.022 E98.42808
G0 X79.799 Y47.962 F7200
G0 X81.399 Y47.962
G0 X80.839 Y48.362
;segType:Loop
G1 X108.438 Y48.362 E99.34603 F3600
G1 X108.438 Y81.381 E100.44426
G1 X80.139 Y81.381 E101.38550
G1 X80.139 Y48.362 E102.48373
G1 X80.639 Y48.362 E102.50036
G0 X80.717 Y48.722 F7200
;segType:HShell
G1 X108.078 Y76.082 E103.78732 F3600
G0 X108.078 Y75.517 F7200
G1 X81.283 Y48.722 E105.04767 F3600
G0 X81.849 Y48.722 F7200
G1 X108.078 Y74.951 E106.28141 F3600
G0 X108.078 Y74.385 F7200
G1 X82.415 Y48.722 E107.48855 F3600
G0 X82.980 Y48.722 F7200
G1 X108.078 Y73.820 E108.66908 F3600
G0 X108.078 Y73.254 F7200
G1 X83.546 Y48.722 E109.82300 F3600
G0 X84.112 Y48.722 F7200
G1 X108.078 Y72.688 E110.95031 F3600
G0 X108.078 Y72.123 F7200
G1 X84.677 Y48.722 E112.05101 F3600
G0 X85.243 Y48.722 F7200
G1 X108.078 Y71.557 E113.12511 F3600
G0 X108.078 Y70.991 F7200
G1 X85.809 Y48.722 E114.17259 F3600
G0 X86.374 Y48.722 F7200
G1 X108.078 Y70.425 E115.19347 F3600
G0 X108.078 Y69.860 F7200
G1 X86.940 Y48.722 E116.18774 F3600
G0 X87.506 Y48.722 F7200
G1 X108.078 Y69.294 E117.15540 F3600
G0 X108.078 Y68.728 F7200
G1 X88.071 Y48.722 E118.09646 F3600
G0 X88.637 Y48.722 F7200
G1 X108.078 Y68.163 E119.01090 F3600
G0 X108.078 Y67.597 F7200
G1 X89.203 Y48.722 E119.89874 F3600
G0 X89.768 Y48.722 F7200
G1 X108.078 Y67.031 E120.75997 F3600
G0 X108.078 Y66.466 F7200
G1 X90.334 Y48.722 E121.59460 F3600
G0 X90.900 Y48.722 F7200
G1 X108.078 Y65.900 E122.40261 F3600
G0 X108.078 Y65.334 F7200
G1 X91.465 Y48.722 E123.18401 F3600
G0 X92.031 Y48.722 F7200
G1 X108.078 Y64.769 E123.93881 F3600
G0 X108.078 Y64.203 F7200
G1 X92.597 Y48.722 E124.66700 F3600
G0 X93.163 Y48.722 F7200
G1 X108.078 Y63.637 E125.36858 F3600
G0 X108.078 Y63.072 F7200
G1 X93.728 Y48.722 E126.04356 F3600
G0 X94.294 Y48.722 F7200
G1 X108.078 Y62.506 E126.69192 F3600
G0 X108.078 Y61.940 F7200
G1 X94.860 Y48.722 E127.31367 F3600
