;Generated by Cura LulzBot Edition GCodeWriter Version: 3.6.20
;FLAVOR:Marlin
;TIME:6993
;Filament used: 2.11717m
;Layer height: 0.25
;Generated with Cura_SteamEngine 3.6.20
M82 ;absolute extrusion mode
;This G-Code has been generated specifically for the LulzBot Mini 2 with SE 0.5mm Tool Head
M73 P0                  ; clear GLCD progress bar
M75 					; Start GLCD Print Timer
G26 					; clear potential 'probe fail' condition
M107 					; disable fans
M420 S0                 ; disable leveling matrix
G90 					; absolute positioning
M82 					; set extruder to absolute mode
G92 E0 					; set extruder position to 0
M140 S60.0 ; start bed heating up
G28 					; home all axes
G0 X0 Y187 Z156 F200 			; move away from endstops
M117 Mini 2 Wiping...			; progress indicator message on LCD
M109 R140 	; soften filament before retraction
G1 E-15 F75 				; retract filament
M109 R140 	; wait for extruder to reach wiping temp
G1 X45 Y176 F11520 			; move above wiper pad
G1 Z0 F1200 				; push nozzle into wiper
G1 X45 Y178 Z-.5 F4000		; wiping
G1 X55 Y176 Z-.5 F4000		; wiping
G1 X45 Y177 Z0 F4000		; wiping
G1 X55 Y176 F4000		; wiping
G1 X45 Y178 F4000		; wiping
G1 X55 Y176 F4000		; wiping
G1 X45 Y178 F4000		; wiping
G1 X55 Y176 F4000		; wiping
G1 X60 Y178 F4000		; wiping
G1 X80 Y176 F4000		; wiping
G1 X60 Y178 F4000		; wiping
G1 X80 Y176 F4000		; wiping
G1 X60 Y178 F4000		; wiping
G1 X90 Y176 F4000		; wiping
G1 X80 Y178 F4000		; wiping
G1 X100 Y176 F4000		; wiping
G1 X80 Y178 F4000		; wiping
G1 X100 Y176 F4000		; wiping
G1 X80 Y178 F4000		; wiping
G1 X100 Y176 F4000		; wiping
G1 X110 Y178 F4000		; wiping
G1 X100 Y176 F4000		; wiping
G1 X110 Y178 F4000		; wiping
G1 X100 Y176 F4000		; wiping
G1 X110 Y178 F4000		; wiping
G1 X115 Y176 Z-0.5 F1000	; wiping
G1 Z10					; raise extruder
G28 X0 Y0				; home X and Y
M109 R140	; wait for extruder to reach probe temp
M204 S300				; set probing acceleration
G29					; start auto-leveling sequence
M420 S1                     ; enable leveling matrix
M425 Z			     		; use measured Z backlash for compensation
M425 Z F0		     		; turn off measured Z backlash compensation. (if activated in the quality settings, this command will automatically be ignored)
M204 S2000				; restore standard acceleration
G1 X5 Y15 Z10 F5000			; move up off last probe point
G4 S1					; pause
M400					; wait for moves to finish
M117 Heating...				; progress indicator message on LCD
M109 R210 ; wait for extruder to reach initial printing temp
M190 R60.0 ; wait for bed to reach printing temp
G1 Z2 E0 F75				; prime tiny bit of filment into the nozzle
M117 Mini 2 Printing...		; progress indicator message on LCD

M221 S100 T0
G92 E0
G1 F600 E-1.75
;LAYER_COUNT:145
;LAYER:0
M425 F1.0
M107
G0 F2625 X49.455 Y44.385 Z0.425
;TYPE:SKIRT
G1 F600 E0
G1 F900 X49.842 Y44.054 E0.01696
G1 X50.276 Y43.787 E0.03394
G1 X50.747 Y43.591 E0.05093
G1 X51.418 Y43.449 E0.07378
G1 X53.476 Y43.234 E0.1427
G1 X58.992 Y42.444 E0.32832
G1 X61.317 Y42.072 E0.40675
G1 X61.834 Y42.031 E0.42402
G1 X71.501 Y42.04 E0.74604
G1 X72.055 Y42.088 E0.76456
G1 X75.492 Y42.686 E0.88077
G1 X81.649 Y43.457 E1.08746
G1 X82.148 Y43.56 E1.10443
G1 X82.625 Y43.739 E1.1214
G1 X83.068 Y43.991 E1.13838
G1 X83.561 Y44.401 E1.15974
G1 X85.738 Y46.611 E1.26307
G1 X89.76 Y50.354 E1.44609
G1 X91.829 Y52.121 E1.53672
G1 X93.943 Y53.824 E1.62715
G1 X98.36 Y57.086 E1.81005
G1 X102.931 Y60.079 E1.99205
G1 X107.676 Y62.814 E2.17448
G1 X112.569 Y65.278 E2.35697
G1 X117.62 Y67.473 E2.54042
G1 X120.132 Y68.441 E2.63009
G1 X124.838 Y70.043 E2.79569
G1 X125.306 Y70.245 E2.81267
G1 X125.737 Y70.517 E2.82964
G1 X126.12 Y70.853 E2.84661
G1 X126.445 Y71.245 E2.86358
G1 X126.706 Y71.683 E2.88056
G1 X126.895 Y72.156 E2.89753
G1 X127.007 Y72.653 E2.9145
G1 X127.041 Y73.12 E2.93009
G1 X127.04 Y112.104 E4.22867
G1 X127 Y112.612 E4.24564
G1 X126.881 Y113.107 E4.2626
G1 X126.686 Y113.578 E4.27958
G1 X126.42 Y114.013 E4.29656
G1 X126.09 Y114.4 E4.3135
G1 X125.703 Y114.732 E4.33049
G1 X125.268 Y114.998 E4.34747
G1 X124.554 Y115.263 E4.37284
G1 X120.919 Y116.142 E4.49742
G1 X115.661 Y117.674 E4.67984
G1 X110.502 Y119.5 E4.86214
G1 X105.442 Y121.619 E5.04487
G1 X100.525 Y124.014 E5.22706
G1 X95.741 Y126.69 E5.40965
G1 X92.463 Y128.728 E5.53822
G1 X92.01 Y128.962 E5.55521
G1 X91.527 Y129.123 E5.57217
G1 X91.024 Y129.206 E5.58915
G1 X90.747 Y129.218 E5.59838
G1 X61.259 Y129.22 E6.58064
G1 X60.751 Y129.18 E6.59761
G1 X60.256 Y129.061 E6.61457
G1 X59.785 Y128.867 E6.63154
G1 X59.35 Y128.601 E6.64852
G1 X58.963 Y128.27 E6.66549
G1 X58.632 Y127.883 E6.68245
G1 X58.365 Y127.449 E6.69942
G1 X58.169 Y126.978 E6.71642
G1 X58.05 Y126.483 E6.73338
G1 X58.01 Y126.045 E6.74803
G1 X57.843 Y118.837 E6.98819
G1 X57.381 Y113.395 E7.17012
G1 X56.611 Y107.994 E7.35185
G1 X55.523 Y102.57 E7.53612
G1 X54.893 Y100 E7.62426
G1 X54.161 Y97.337 E7.71626
G1 X52.48 Y92.11 E7.89916
G1 X50.51 Y86.996 E8.08171
G1 X48.787 Y83.089 E8.22394
G1 X48.619 Y82.608 E8.24092
G1 X48.528 Y82.106 E8.25791
G1 X48.511 Y81.778 E8.26885
G1 X48.505 Y46.682 E9.43791
G1 X48.545 Y46.174 E9.45489
G1 X48.664 Y45.678 E9.47188
G1 X48.858 Y45.207 E9.48884
G1 X49.124 Y44.773 E9.5058
G1 X49.455 Y44.385 E9.52279
G1 F600 E7.77279
;MESH:
G0 F2625 X51.085 Y47.436
G0 X52.514 Y47.436
G0 X57.431 Y51.32
G0 X57.775 Y51.869
G0 X57.914 Y52.504
G0 X57.772 Y53.474
G0 X57.683 Y53.43
;TYPE:WALL-INNER
G1 F600 E9.52279
G1 F900 X57.798 Y53.131 E9.53346
G1 X57.863 Y52.823 E9.54394
G1 X57.875 Y52.505 E9.55455
G1 X57.833 Y52.188 E9.5652
G1 X57.738 Y51.884 E9.57581
G1 X57.593 Y51.6 E9.58643
G1 X57.402 Y51.346 E9.59701
G1 X57.172 Y51.128 E9.60757
G1 X56.905 Y50.95 E9.61826
G1 X56.616 Y50.822 E9.62879
G1 X56.307 Y50.742 E9.63942
G1 X55.989 Y50.717 E9.65005
G1 X55.672 Y50.746 E9.66065
G1 X55.363 Y50.829 E9.67131
G1 X55.076 Y50.961 E9.68183
G1 X54.812 Y51.141 E9.69247
G1 X54.584 Y51.362 E9.70305
G1 X54.395 Y51.62 E9.7137
G1 X54.255 Y51.906 E9.72431
G1 X54.162 Y52.208 E9.73484
G1 X54.124 Y52.527 E9.74554
G1 X54.139 Y52.846 E9.75617
G1 X54.21 Y53.157 E9.7668
G1 X54.329 Y53.451 E9.77737
G1 X54.497 Y53.719 E9.7879
G1 X54.708 Y53.957 E9.7985
G1 X54.959 Y54.157 E9.80919
G1 X55.238 Y54.31 E9.81979
G1 X55.54 Y54.413 E9.83042
G1 X55.852 Y54.465 E9.84095
G1 X56.17 Y54.464 E9.85154
G1 X56.483 Y54.408 E9.86214
G1 X56.783 Y54.3 E9.87276
G1 X57.062 Y54.142 E9.88344
G1 X57.305 Y53.942 E9.89392
G1 X57.513 Y53.706 E9.9044
G1 X57.683 Y53.43 E9.9152
G0 F2625 X57.772 Y53.474
G0 X68.673 Y54.503
G0 X69.299 Y54.336
G0 X69.73 Y54.04
G0 X70.272 Y53.474
G0 X70.183 Y53.43
G1 F900 X70.298 Y53.131 E9.92587
G1 X70.363 Y52.823 E9.93635
G1 X70.375 Y52.505 E9.94695
G1 X70.333 Y52.188 E9.95761
G1 X70.238 Y51.884 E9.96822
G1 X70.093 Y51.6 E9.97884
G1 X69.902 Y51.346 E9.98942
G1 X69.672 Y51.128 E9.99998
G1 X69.405 Y50.95 E10.01067
G1 X69.116 Y50.822 E10.0212
G1 X68.807 Y50.742 E10.03183
G1 X68.489 Y50.717 E10.04245
G1 X68.172 Y50.746 E10.05306
G1 X67.863 Y50.829 E10.06372
G1 X67.576 Y50.961 E10.07424
G1 X67.312 Y51.141 E10.08488
G1 X67.084 Y51.362 E10.09546
G1 X66.895 Y51.62 E10.10611
G1 X66.755 Y51.906 E10.11672
G1 X66.662 Y52.208 E10.12725
G1 X66.624 Y52.527 E10.13795
G1 X66.639 Y52.846 E10.14858
G1 X66.71 Y53.157 E10.15921
G1 X66.829 Y53.451 E10.16978
G1 X66.997 Y53.719 E10.18031
G1 X67.208 Y53.957 E10.19091
G1 X67.459 Y54.157 E10.2016
G1 X67.738 Y54.31 E10.2122
G1 X68.04 Y54.413 E10.22282
G1 X68.352 Y54.465 E10.23336
G1 X68.67 Y54.464 E10.24395
G1 X68.983 Y54.408 E10.25455
G1 X69.283 Y54.3 E10.26517
G1 X69.562 Y54.142 E10.27585
G1 X69.805 Y53.942 E10.28633
G1 X70.013 Y53.706 E10.29681
G1 X70.183 Y53.43 E10.30761
G0 F2625 X70.272 Y53.474
G0 X70.386 Y52.69
G0 X70.68 Y47.493
G0 X70.75 Y47.423
G1 F900 X71 Y47.423 E10.31593
G1 X80.25 Y47.422 E10.62406
G1 X80.5 Y47.422 E10.63238
G1 X80.5 Y47.672 E10.63777
G1 X80.5 Y81.026 E11.7488
G1 X52.75 Y81.027 E12.67317
G1 X52.5 Y81.027 E12.68149
G1 X52.5 Y80.777 E12.68688
G1 X52.5 Y47.422 E13.79795
G1 X62.25 Y47.422 E14.12273
G1 X62.25 Y46.031 E14.16906
G1 X70.5 Y46.03 E14.44387
G1 X70.75 Y46.03 E14.4522
G1 X70.75 Y46.28 E14.45759
G1 X70.75 Y47.173 E14.48733
G1 X70.75 Y47.423 E14.49272
G0 F2625 X70.68 Y47.493
G0 X73.278 Y55.817
G0 X73.278 Y70.373
G0 X69.974 Y72.276
G0 X69.9 Y72.342
G1 F900 X69.667 Y72.125 E14.50333
G1 X69.403 Y71.949 E14.5139
G1 X69.113 Y71.821 E14.52445
G1 X68.804 Y71.742 E14.53508
G1 X68.485 Y71.717 E14.54574
G1 X68.167 Y71.747 E14.55638
G1 X67.861 Y71.83 E14.56694
G1 X67.573 Y71.962 E14.57749
G1 X67.31 Y72.143 E14.58813
G1 X67.081 Y72.365 E14.59875
G1 X66.894 Y72.622 E14.60934
G1 X66.752 Y72.909 E14.62
G1 X66.662 Y73.213 E14.63056
G1 X66.623 Y73.529 E14.64117
G1 X66.64 Y73.848 E14.65181
G1 X66.709 Y74.159 E14.66242
G1 X66.831 Y74.456 E14.67312
G1 X67.002 Y74.724 E14.68371
G1 X67.212 Y74.958 E14.69418
G1 X67.461 Y75.158 E14.70482
G1 X67.74 Y75.31 E14.7154
G1 X68.042 Y75.415 E14.72605
G1 X68.356 Y75.465 E14.73664
G1 X68.672 Y75.464 E14.74717
G1 X68.986 Y75.408 E14.75779
G1 X69.286 Y75.299 E14.76843
G1 X69.563 Y75.142 E14.77903
G1 X69.809 Y74.94 E14.78964
G1 X70.017 Y74.7 E14.80022
G1 X70.182 Y74.428 E14.81081
G1 X70.3 Y74.129 E14.82152
G1 X70.363 Y73.818 E14.83209
G1 X70.375 Y73.5 E14.84269
G1 X70.331 Y73.183 E14.85335
G1 X70.236 Y72.883 E14.86383
G1 X70.092 Y72.599 E14.87444
G1 X69.9 Y72.342 E14.88513
G0 F2625 X69.974 Y72.276
G0 X69.126 Y71.784
G0 X68.608 Y71.698
G0 X57.474 Y72.276
G0 X57.4 Y72.342
G1 F900 X57.167 Y72.125 E14.89573
G1 X56.903 Y71.949 E14.9063
G1 X56.613 Y71.821 E14.91686
G1 X56.304 Y71.742 E14.92748
G1 X55.985 Y71.717 E14.93814
G1 X55.667 Y71.747 E14.94878
G1 X55.361 Y71.83 E14.95934
G1 X55.073 Y71.962 E14.9699
G1 X54.81 Y72.143 E14.98053
G1 X54.581 Y72.365 E14.99115
G1 X54.394 Y72.622 E15.00174
G1 X54.252 Y72.909 E15.01241
G1 X54.162 Y73.213 E15.02297
G1 X54.123 Y73.529 E15.03358
G1 X54.14 Y73.848 E15.04422
G1 X54.209 Y74.159 E15.05483
G1 X54.331 Y74.456 E15.06552
G1 X54.502 Y74.724 E15.07611
G1 X54.712 Y74.958 E15.08659
G1 X54.961 Y75.158 E15.09722
G1 X55.24 Y75.31 E15.10781
G1 X55.542 Y75.415 E15.11846
G1 X55.856 Y75.465 E15.12905
G1 X56.172 Y75.464 E15.13958
G1 X56.486 Y75.408 E15.1502
G1 X56.786 Y75.299 E15.16083
G1 X57.063 Y75.142 E15.17144
G1 X57.309 Y74.94 E15.18204
G1 X57.517 Y74.7 E15.19262
G1 X57.682 Y74.428 E15.20322
G1 X57.8 Y74.129 E15.21392
G1 X57.863 Y73.818 E15.22449
G1 X57.875 Y73.5 E15.23509
G1 X57.831 Y73.183 E15.24576
G1 X57.736 Y72.883 E15.25624
G1 X57.592 Y72.599 E15.26684
G1 X57.4 Y72.342 E15.27753
G0 F2625 X57.474 Y72.276
G0 X54.68 Y70.415
G0 X54.75 Y70.345
G1 F900 X73.25 Y70.345 E15.89377
G1 X73.25 Y55.845 E16.37677
G1 X55 Y55.844 E16.98469
G1 X54.75 Y55.844 E16.99301
G1 X54.75 Y56.094 E16.9984
G1 X54.75 Y70.345 E17.47311
G0 F2625 X55.25 Y69.845
;TYPE:WALL-OUTER
G1 F900 X72.75 Y69.845 E18.05604
G1 X72.75 Y56.345 E18.50573
G1 X55.5 Y56.344 E19.08033
G1 X55.25 Y56.344 E19.08866
G1 X55.25 Y56.594 E19.09405
G1 X55.25 Y69.845 E19.53544
G0 F2625 X55.5 Y69.845
G0 X55.5 Y70.445
G0 X54.215 Y72.895
G0 X54.084 Y73.528
G0 X54.108 Y73.709
G0 X54.271 Y74.547
G0 X54.777 Y74.225
G1 F900 X54.902 Y74.421 E19.54319
G1 X55.057 Y74.594 E19.55092
G1 X55.239 Y74.74 E19.5587
G1 X55.443 Y74.851 E19.56643
G1 X55.665 Y74.928 E19.57426
G1 X55.895 Y74.965 E19.58202
G1 X56.127 Y74.964 E19.58975
G1 X56.356 Y74.923 E19.5975
G1 X56.576 Y74.843 E19.6053
G1 X56.779 Y74.728 E19.61307
G1 X56.959 Y74.58 E19.62083
G1 X57.112 Y74.404 E19.6286
G1 X57.233 Y74.205 E19.63636
G1 X57.319 Y73.987 E19.64416
G1 X57.365 Y73.759 E19.65191
G1 X57.374 Y73.525 E19.65971
G1 X57.342 Y73.294 E19.66748
G1 X57.272 Y73.073 E19.6752
G1 X57.166 Y72.864 E19.68301
G1 X57.026 Y72.677 E19.69079
G1 X56.856 Y72.518 E19.69854
G1 X56.662 Y72.389 E19.7063
G1 X56.449 Y72.295 E19.71406
G1 X56.222 Y72.237 E19.72186
G1 X55.989 Y72.219 E19.72965
G1 X55.757 Y72.241 E19.73741
G1 X55.532 Y72.302 E19.74517
G1 X55.32 Y72.399 E19.75294
G1 X55.128 Y72.531 E19.7607
G1 X54.96 Y72.694 E19.7685
G1 X54.823 Y72.882 E19.77625
G1 X54.719 Y73.092 E19.78405
G1 X54.653 Y73.315 E19.7918
G1 X54.625 Y73.546 E19.79955
G1 X54.637 Y73.78 E19.80736
G1 X54.688 Y74.008 E19.81514
G1 X54.777 Y74.225 E19.82295
G0 F2625 X54.902 Y74.421
G0 X54.914 Y74.434
G0 X54.467 Y74.833
G0 X55.224 Y75.346
G0 X55.853 Y75.504
G0 X66.771 Y74.547
G0 X67.277 Y74.225
G1 F900 X67.402 Y74.421 E19.83069
G1 X67.557 Y74.594 E19.83843
G1 X67.739 Y74.74 E19.8462
G1 X67.943 Y74.851 E19.85394
G1 X68.165 Y74.928 E19.86177
G1 X68.395 Y74.965 E19.86953
G1 X68.627 Y74.964 E19.87725
G1 X68.856 Y74.923 E19.885
G1 X69.076 Y74.843 E19.8928
G1 X69.279 Y74.728 E19.90057
G1 X69.459 Y74.58 E19.90834
G1 X69.612 Y74.404 E19.9161
G1 X69.733 Y74.205 E19.92386
G1 X69.819 Y73.987 E19.93167
G1 X69.865 Y73.759 E19.93942
G1 X69.874 Y73.525 E19.94722
G1 X69.842 Y73.294 E19.95498
G1 X69.772 Y73.073 E19.96271
G1 X69.666 Y72.864 E19.97051
G1 X69.526 Y72.677 E19.97829
G1 X69.356 Y72.518 E19.98605
G1 X69.162 Y72.389 E19.99381
G1 X68.949 Y72.295 E20.00156
G1 X68.722 Y72.237 E20.00937
G1 X68.489 Y72.219 E20.01715
G1 X68.257 Y72.241 E20.02491
G1 X68.032 Y72.302 E20.03268
G1 X67.82 Y72.399 E20.04045
G1 X67.628 Y72.531 E20.04821
G1 X67.46 Y72.694 E20.056
G1 X67.323 Y72.882 E20.06375
G1 X67.219 Y73.092 E20.07156
G1 X67.153 Y73.315 E20.07931
G1 X67.125 Y73.546 E20.08706
G1 X67.137 Y73.78 E20.09486
G1 X67.188 Y74.008 E20.10264
G1 X67.277 Y74.225 E20.11046
G0 F2625 X67.402 Y74.421
G0 X67.414 Y74.434
G0 X66.967 Y74.833
G0 X66.671 Y74.17
G0 X66.584 Y73.528
G0 X66.715 Y72.895
G0 X67.65 Y70.383
G0 X73.278 Y70.373
G0 X73.278 Y55.817
G0 X70.243 Y53.522
G0 X69.733 Y53.207
G1 F900 X69.817 Y52.989 E20.11824
G1 X69.865 Y52.761 E20.126
G1 X69.874 Y52.529 E20.13373
G1 X69.843 Y52.297 E20.14153
G1 X69.773 Y52.074 E20.14932
G1 X69.667 Y51.866 E20.15709
G1 X69.527 Y51.68 E20.16485
G1 X69.359 Y51.52 E20.17258
G1 X69.164 Y51.39 E20.18038
G1 X68.951 Y51.296 E20.18814
G1 X68.724 Y51.237 E20.19595
G1 X68.492 Y51.219 E20.2037
G1 X68.26 Y51.24 E20.21146
G1 X68.034 Y51.301 E20.21926
G1 X67.823 Y51.398 E20.22699
G1 X67.629 Y51.53 E20.23481
G1 X67.462 Y51.692 E20.24256
G1 X67.324 Y51.88 E20.25033
G1 X67.221 Y52.09 E20.25812
G1 X67.153 Y52.312 E20.26585
G1 X67.125 Y52.545 E20.27367
G1 X67.136 Y52.778 E20.28144
G1 X67.188 Y53.006 E20.28923
G1 X67.276 Y53.222 E20.297
G1 X67.399 Y53.418 E20.30471
G1 X67.554 Y53.593 E20.3125
G1 X67.737 Y53.739 E20.32029
G1 X67.941 Y53.851 E20.32805
G1 X68.163 Y53.927 E20.33586
G1 X68.392 Y53.965 E20.34359
G1 X68.625 Y53.964 E20.35136
G1 X68.854 Y53.923 E20.3591
G1 X69.074 Y53.844 E20.36689
G1 X69.277 Y53.729 E20.37466
G1 X69.456 Y53.581 E20.3824
G1 X69.61 Y53.407 E20.39014
G1 X69.733 Y53.207 E20.39796
G0 F2625 X69.817 Y52.989
G0 X69.82 Y52.973
G0 X70.407 Y53.097
G0 X70.65 Y46.923
G0 X71.25 Y46.923
G1 F900 X71.5 Y46.923 E20.40629
G1 X80.75 Y46.922 E20.71441
G1 X81 Y46.922 E20.72274
G1 X81 Y47.172 E20.72812
G1 X81 Y81.526 E21.87247
G1 X52.25 Y81.527 E22.83014
G1 X52 Y81.527 E22.83847
G1 X52 Y81.277 E22.84386
G1 X52 Y46.922 E23.98823
G1 X61.75 Y46.922 E24.31301
G1 X61.75 Y45.531 E24.35935
G1 X71 Y45.53 E24.66747
G1 X71.25 Y45.53 E24.67579
G1 X71.25 Y45.78 E24.68118
G1 X71.25 Y46.673 E24.71093
G1 X71.25 Y46.923 E24.71632
G0 F2625 X71.5 Y46.923
G0 X71.5 Y47.523
G0 X57.743 Y53.522
G0 X57.233 Y53.207
G1 F900 X57.317 Y52.989 E24.7241
G1 X57.365 Y52.761 E24.73186
G1 X57.374 Y52.529 E24.73959
G1 X57.343 Y52.297 E24.74739
G1 X57.273 Y52.074 E24.75518
G1 X57.167 Y51.866 E24.76295
G1 X57.027 Y51.68 E24.77071
G1 X56.859 Y51.52 E24.77843
G1 X56.664 Y51.39 E24.78624
G1 X56.451 Y51.296 E24.794
G1 X56.224 Y51.237 E24.80181
